!!!!SEGMENT: pl-kk--kk-i-379--001_anonim--adoramus-te-christe.krn
!!!cenid: 17xx:1979
!!!COM: Anonim
!!!COM-rismID: pe30004985
!!!CDT:
!!!CNT:
!!!OTL: Adoramus te Christe
!!!PDT:
!!!AGN: Sacred
!!!SMS-siglum: PL-Kk
!!!SMS-shelfmark: Kk.I.379
!!!SMS-shelfwork: 001 W
!!!SMS-variant:
!!!SMS-altvar:
!!!NIFC-rismSourceID: 1001143605
!!!NIFC-islandoraID: pl-kk:6124
!!!URL-pdf-islandora: https://repozytorium.nifc.pl/islandora/object/pl-kk%3A6124/datastream/PDF/view
!!!URL-scan: https://polish.musicsources.pl/pl/lokalizacje/galeria/rekopisy/5991 @EN{Scan on Polish Music Sources Website} @PL{Skany w portalu Dziedzictwo Muzyki Polskiej w otwartym dostępie}
!!!ONB-nifc: UWAGA: utwory w zbiorze: 1. Adoramus te Christe, 2. Deo gratias. Uwaga: Deo gratias na ostatniej pięciolinii
!!!AIN: 2 alto 3 empty 2 tenor 1 vox
!!!key:
**kern	**text	**kern	**text	**kern	**text	**kern	**text	**kern	**text	**kern	**text	**kern	**text	**kern	**text
*part8	*part8	*part7	*part7	*part6	*part6	*part5	*part5	*part4	*part4	*part3	*part3	*part2	*part2	*part1	*part1
*staff8	*staff8	*staff7	*staff7	*staff6	*staff6	*staff5	*staff5	*staff4	*staff4	*staff3	*staff3	*staff2	*staff2	*staff1	*staff1
*Iempty	*	*Iempty	*	*Itenor	*	*Itenor	*	*Ialto	*	*Ialto	*	*Iempty	*	*Ivox	*
*I"Baſſo 2d.o	*	*I"Baſſo 1mo	*	*I"Tenore Sd.o	*	*I"Tenore 1m.o	*	*I"Alto 2d.o	*	*I"A[l]to 1mo.	*	*I"Camto Sed.o	*	*I"Canto 1mo	*
*I'B 2	*	*I'B 1	*	*I'T 2	*	*I'T 1	*	*I'A 2	*	*I'A 1	*	*I'C 2	*	*I'C 1	*
*clefF4	*	*clefF4	*	*clefC4	*	*clefC4	*	*clefC3	*	*clefC3	*	*clefC1	*	*clefC1	*
*k[b-e-]	*	*k[b-e-]	*	*k[b-e-]	*	*k[b-e-]	*	*k[b-e-]	*	*k[b-e-]	*	*k[b-e-]	*	*k[b-e-]	*
*g:	*	*g:	*	*g:	*	*g:	*	*g:	*	*g:	*	*g:	*	*g:	*
*M2/1	*	*M2/1	*	*M2/1	*	*M2/1	*	*M2/1	*	*M2/1	*	*M2/1	*	*M2/1	*
*met(C)	*	*met(C)	*	*met(C)	*	*met(C)	*	*met(C)	*	*met(C)	*	*met(C)	*	*met(C)	*
=1-	=1-	=1-	=1-	=1-	=1-	=1-	=1-	=1-	=1-	=1-	=1-	=1-	=1-	=1-	=1-
*2\right	*	*2\right	*	*2\right	*	*2\right	*	*2\right	*	*2\right	*	*2\right	*	*2\right	*
!LO:TX:i:a:t=adagio.	!	!LO:TX:i:a:t=adagio	!	!LO:TX:i:a:t=adagio	!	!LO:TX:i:a:t=adagio	!	!LO:TX:a:t=P:problem=all\right&colon; global	!	!LO:TX:i:a:t=adagio	!	!LO:TX:a:t=P:problem=all\right&colon; global	!	!LO:TX:a:t=P:problem=all\right&colon; global	!
!LO:TX:a:t=P:problem=all\right&colon; global	!	!LO:TX:a:t=P:problem=all\right&colon; global	!	!LO:TX:a:t=P:problem=all\right&colon; global	!	!LO:TX:a:t=P:problem=all\right&colon; global	!	!LO:TX:i:a:t=adagio	!	!LO:TX:a:t=P:problem=all\right&colon; global	!	!LO:TX:i:a:t=adagio	!	!LO:TX:i:a:t=adagio	!
!	!	!	!	!LO:TX:a:t=P:problem=znaki przykluczowe&colon; E-, B-	!	!LO:TX:a:t=P:problem=znaki przykluczowe&colon; B-, E-	!	!	!	!	!	!LO:TX:a:t=P:problem=znaki przykluczowe&colon; b-, ee-	!	!LO:TX:a:t=P:problem=znaki przykluczowe&colon; b-, ee-	!
2G\	a-	2G\	a-	2d\	a-	2d\	ado-	2g\	A-	2g\	A-	2b-\	ado-	2b-\	A-
!	!	!	!	!	!	!	!	!	!	!	!	!LO:TX:t=P:problem=kreska pseudotaktowa	!	!LO:TX:t=P:problem=kreska pseudotaktowa	!
!	!	!	!	!	!	!	!	!	!	!	!	!LO:N:vis=2.	!	!	!
2d\	-do-	(>2F#X\	-do-	2c\	-do-	2d\	.	2f#X\	-do-	2a\	-do-	2a\	.	2cc\	-do-
!	!	!	!	!	!	!	!	!	!	!	!	!	!	!LO:TX:t=P:problem=kreska pseudotaktowa	!
2G\	.	2G\)	.	(>2d\	-ra-	2d\	-ra-	1gT>	-ra-	(>2b-\	-ra-	1g	-ra-	1b-M>	-ra-
2C#Xm>/	-ra-	2C#Xm>/	-ra-	2ent>\)	.	2B-M>\	.	.	.	2at>\)	.	.	.	.	.
=2-	=2-	=2-	=2-	=2-	=2-	=2-	=2-	=2-	=2-	=2-	=2-	=2-	=2-	=2-	=2-
0D;<	-mus	0D;<	-mus	0d;<	-mus	0A;<	-mus	0f#X;<	-mus	0a;<	-mus	0f#X;<	-mus	0a	-mus
.	.	.	.	.	.	.	.	.	.	.	.	.	.	.	.
=3-	=3-	=3-	=3-	=3-	=3-	=3-	=3-	=3-	=3-	=3-	=3-	=3-	=3-	=3-	=3-
*M2/1	*	*M2/1	*	*M2/1	*	*M2/1	*	*M2/1	*	*M2/1	*	*M2/1	*	*M2/1	*
*met(C|)	*	*met(C|)	*	*met(C|)	*	*met(C|)	*	*met(C|)	*	*met(C|)	*	*met(C|)	*	*met(C|)	*
!	!	!LO:TX:b:t=2	!	!LO:TX:b:t=2	!	!LO:TX:b:t=i	!	!LO:TX:b:t=2	!	!	!	!LO:TX:b:t=2	!	!	!
!LO:TX:i:a:t=Lento	!	!LO:TX:i:a:t=Lento	!	!LO:TX:i:a:t=Lento	!	!LO:TX:i:a:t=Lento.	!	!LO:TX:i:a:t=Lento	!	!LO:TX:i:a:t=Lento.	!	!LO:TX:i:a:t=Lento	!	!LO:TX:i:a:t=Lento.	!
!	!	!LO:TX:t=P:problem=kreska pseudotaktowa	!	!LO:TX:t=P:problem=kreska pseudotaktowa	!	!LO:TX:t=P:problem=kreska pseudotaktowa	!	!LO:TX:t=P:problem=kreska pseudotaktowa	!	!	!	!LO:TX:t=P:problem=kreska pseudotaktowa	!	!LO:TX:t=P:problem=kreska pseudotaktowa	!
!	!	!LO:N:vis=0	!	!LO:N:vis=0	!	!	!	!LO:N:vis=0	!	!	!	!LO:N:vis=0	!	!LO:TX:b:t=I	!
2G\	a-	0r	.	0r	.	1r	.	0r	.	2g\	A-	0r	.	1r	.
2G\	-do-	.	.	.	.	.	.	.	.	2g\	-do-	.	.	.	.
2d\	-ra-	.	.	.	.	2A\	A-	.	.	2f#X\	-ra-	.	.	2dd\	A-
2d\	-mus	.	.	.	.	2A\	-do-	.	.	2f#\	-mus	.	.	2dd\	-do-
=4-	=4-	=4-	=4-	=4-	=4-	=4-	=4-	=4-	=4-	=4-	=4-	=4-	=4-	=4-	=4-
1G	te	2G\	a-	2B-\	a-	2B-\	-ra-	2g\	a-	1g	te	2dd\	A-	2b-\	-ra-
.	.	2G\	-do-	2B-\	-do-	2B-\	-mus	2g\	-do-	.	.	2dd\	-do-	2b-\	-mus
1D	X-	2d\	-ra-	2A\	-ra-	2c\	te	2a\	-ra-	1d	X.-	2cc\	-ra-	1cc	te
.	.	2d\	-mus	2A\	-mus	2r	.	2a\	-mus	.	.	2cc\	-mus	.	.
=5-	=5-	=5-	=5-	=5-	=5-	=5-	=5-	=5-	=5-	=5-	=5-	=5-	=5-	=5-	=5-
!	!	!	!	!	!	!	!	!	!	!	!	!	!	!LO:TX:t=P:problem=kreska pseudotaktowa	!
2GG/	-ste	1G	te	1G	te	2d\	a-	1g	te	1g	-ste	(>2b-\	te	1b-	X.-
!LO:TX:t=P:problem=kreska pseudotaktowa	!	!	!	!	!	!	!	!	!	!	!	!	!	!	!
2r	.	.	.	.	.	2B-\	-do-	.	.	.	.	2cc\)	.	.	.
1D	et	1D	X-	1d	X-	1c	-ra-	1d	X.-	1f#X	et	1dd	X.-	2a\	-ste
!	!	!	!	!	!	!	!	!	!	!	!	!	!	!LO:TX:t=P:problem=kreska pseudotaktowa	!
.	.	.	.	.	.	.	.	.	.	.	.	.	.	2r	.
=6-	=6-	=6-	=6-	=6-	=6-	=6-	=6-	=6-	=6-	=6-	=6-	=6-	=6-	=6-	=6-
2G\	be-	2GG/	-ste	2d\	-ste	2B-\	-mus	2g\	-ste	2b-\	be-	2dd\	-ste	1b-	et
!	!	!LO:TX:t=P:problem=kreska pseudotaktowa	!	!LO:TX:t=P:problem=kreska pseudotaktowa	!	!LO:TX:t=P:problem=kreska pseudotaktowa	!	!LO:TX:t=P:problem=kreska pseudotaktowa	!	!	!	!LO:TX:t=P:problem=kreska pseudotaktowa	!	!	!
2G\	-ne-	2r	.	2r	.	2r	.	2r	.	2b-\	-ne-	2r	.	.	.
!	!	!	!	!LO:TX:b:t=i	!	!	!	!	!	!	!	!LO:TX:b:t=i	!	!	!
!	!	!	!	!LO:TX:t=P:problem=kreska pseudotaktowa	!	!	!	!	!	!	!	!LO:TX:t=P:problem=kreska pseudotaktowa	!	!	!
2E-\	-di-	2r	.	1r	.	2r	.	1e-X	et	2g\	-di-	1r	.	2cc\	be-
!	!	!LO:TX:t=P:problem=kreska pseudotaktowa	!	!	!	!	!	!	!	!	!	!	!	!	!
4Cny/	-ci-	2E-X\	et	.	.	2B-\	et	.	.	4g\	-Ci-	.	.	2cc\	-ne
4C,/	-mus	.	.	.	.	.	.	.	.	4g\	-mus	.	.	.	.
=7-	=7-	=7-	=7-	=7-	=7-	=7-	=7-	=7-	=7-	=7-	=7-	=7-	=7-	=7-	=7-
1F	ti-	2Fny\	be-	2r	.	2c\	be-	2fny\	be-	1fny	ti-	2r	.	2a\	di-
.	.	2F\	-ne-	2c\	et	2c\	-ne-	2f\	-ne-	.	.	2cc\	et	4b-\	-ci-
!	!	!	!	!	!	!	!	!	!	!	!	!	!	!LO:TX:t=P:problem=kreska pseudotaktowa	!
.	.	.	.	.	.	.	.	.	.	.	.	.	.	4cc\	-mus
4BB-/	.	1B-	-di-	2d\	be-	1d	-di-	2f\	-di-	2f\	-bi	2dd\	be-	1dd	ti-
4C/	.	.	.	.	.	.	.	.	.	.	.	.	.	.	.
!	!	!	!	!	!	!	!	!	!	!LO:TX:t=P:problem=kreska pseudotaktowa	!	!	!	!	!
4D/	.	.	.	2d\	-ne-	.	.	4f\	-ci-	2r	.	2dd\	-ne-	.	.
4E-/	.	.	.	.	.	.	.	4f\	-mus	.	.	.	.	.	.
=8-	=8-	=8-	=8-	=8-	=8-	=8-	=8-	=8-	=8-	=8-	=8-	=8-	=8-	=8-	=8-
2F\	-bi	2F\	-ci-	2c\	-di-	2c\	-ci-	(>2a\	ti-	1a	ti-	2cc\	-di-	2cc\	-bi
!	!	!	!	!	!	!	!	!	!	!	!	!	!	!LO:TX:t=P:problem=kreska pseudotaktowa	!
2r	.	2F#X\	-mus	4c\	-ci-	2c\	-mus	2f#X\)	.	.	.	4cc\	-ci-	2r	.
.	.	.	.	4c\	-mus	.	.	.	.	.	.	4cc\	-mus	.	.
1G	ti-	(>2G\	ti-	1en	ti-	1B-	ti-	2g\	.	2g\	.	1b-	ti-	1b-	ti-
.	.	2c#X\)	.	.	.	.	.	2en\	.	2a\	.	.	.	.	.
=9-	=9-	=9-	=9-	=9-	=9-	=9-	=9-	=9-	=9-	=9-	=9-	=9-	=9-	=9-	=9-
2D\	-bi	2d\	-bi	1d	.	2A\	-bi	2f#X\	-bi	1a	-bi	2a\	-bi	2a\	-bi
!	!	!	!	!	!	!LO:TX:t=P:problem=kreska pseudotaktowa	!	!	!	!	!	!LO:TX:t=P:problem=kreska pseudotaktowa	!	!	!
2r	.	2d\	ti-	.	.	2r	.	2a\	ti-	.	.	2r	.	[>2dd\	ti-
*	*	*	*	*	*	*	*	*	*	*	*	*custos:d	*	*	*
!LO:LB:g=original	!	!	!	!	!	!	!	!	!	!	!	!	!	!LO:LB:g=original	!
!LO:TX:b:t=2	!	!	!	!	!	!LO:TX:b:t=i	!	!	!	!	!	!LO:TX:b:t=2	!	!	!
!LO:TX:t=P:problem=kreska pseudotaktowa	!	!	!	!	!	!LO:TX:t=P:problem=kreska pseudotaktowa	!	!	!	!	!	!LO:TX:t=P:problem=kreska pseudotaktowa	!	!	!
!LO:N:vis=0	!	!	!	!	!	!	!	!	!	!	!	!	!	!	!
!	!	!	!	!	!	!	!	!	!	!	!	!LO:N:vis=0	!	!LO:TX:a:t=P:problem=brak zakończenia ligatury	!
0r	.	1e-X	.	1B-	.	1r	.	2g\	.	1g	ti-	0r	.	2dd\]	.
.	.	.	.	.	.	.	.	2a\	.	.	.	.	.	2cc#X\	.
!	!	!	!	!	!	!	!	!	!	!LO:LB:g=original	!	!	!	!	!
=10-	=10-	=10-	=10-	=10-	=10-	=10-	=10-	=10-	=10-	=10-	=10-	=10-	=10-	=10-	=10-
.	.	2d\	-bi	2A\	-bi	1A	et	2a\	-bi	2f#X\	-bi	.	.	2dd\	-bi
!	!	!	!	!	!	!	!	!LO:TX:t=P:problem=kreska pseudotaktowa	!	!	!	!	!	!	!
.	.	2D/	et	2r	.	.	.	2r	.	2r	.	.	.	2dd\	et
!	!	!	!	!LO:LB:g=original	!	!	!	!	!	!	!	!LO:LB:g=original	!	!	!
!	!	!	!	!LO:TX:b:t=i	!	!	!	!	!	!	!	!	!	!	!
!	!	!	!	!LO:TX:t=P:problem=kreska pseudotaktowa	!	!	!	!	!	!	!	!	!	!	!
2r	.	2G\	be-	1r	.	2B-\	be-	2r	.	1b-	et	2r	.	2b-\	be-
!	!	!	!	!	!	!	!	!LO:TX:t=P:problem=kreska pseudotaktowa	!	!	!	!	!	!LO:TX:t=P:problem=kreska pseudotaktowa	!
2G\	et	2G\	-ne-	.	.	2B-\	-ne-	2b-\	et	.	.	2dd\	et	2g\	-ne
!	!	!LO:LB:g=original	!	!	!	!	!	!LO:LB:g=original	!	!	!	!	!	!	!
=11-	=11-	=11-	=11-	=11-	=11-	=11-	=11-	=11-	=11-	=11-	=11-	=11-	=11-	=11-	=11-
2E-\	be-	2E-\	-di-	2r	.	1c	-di-	2g\	be-	2g\	be-	2ee-X\	be-	2ccny\	di-
2C/	-ne-	4D\	-ci-	2c\	et	.	.	2g\	-ne-	2g\	-ne-	2ee-\	-ne-	4cc\	-ci-
.	.	4E-\	-mus	.	.	.	.	.	.	.	.	.	.	4cc\	-mus
!	!	!	!	!	!	!LO:LB:g=original	!	!	!	!	!	!	!	!	!
2F\	-di-	1Fny	ti-	2c\	be-	2A\	-ci-	2.fny\	-di-	2a\	-di-	2cc\	-di-	2a\	ti-
4F\	-ci-	.	.	2c\	-ne	2A\	-mus	.	.	4g\	-ci-	4b-\	-ci-	2f/	-bi
4F\	-mus	.	.	.	.	.	.	4e-\	-ci-	4a\	-mus	4cc\	-mus	.	.
=12-	=12-	=12-	=12-	=12-	=12-	=12-	=12-	=12-	=12-	=12-	=12-	=12-	=12-	=12-	=12-
!	!	!	!	!	!	!LO:TX:t=P:problem=kreska pseudotaktowa	!	!	!	!	!	!	!	!	!
(>2B-\	ti-	4BB-/	.	2d\	di-	1d	ti-	(>4d\	-mus	[<0fny	ti-	2dd\	ti-	1b-	ti-
.	.	4Cny/	.	.	.	.	.	4e-\)	.	.	.	.	.	.	.
!	!	!	!	!	!	!	!	!	!	!	!	!LO:TX:t=P:problem=kreska pseudotaktowa	!	!	!
2G\)	.	4D/	.	4d\	-ci-	.	.	(>4f\	.	.	.	2dd\	-bi	.	.
.	.	4En/	.	4d\	-mus	.	.	4g\)	.	.	.	.	.	.	.
2F\	.	1F	.	(>2e-X\	ti-	1c	-bi	[<1f	ti-	.	.	1ee-X	ti-	(>2b-\	.
!	!	!	!	!	!	!	!	!	!	!	!	!	!	!LO:TX:t=P:problem=kreska pseudotaktowa	!
2FF/	.	.	.	2c\)	.	.	.	.	.	.	.	.	.	2a\)	.
=13-	=13-	=13-	=13-	=13-	=13-	=13-	=13-	=13-	=13-	=13-	=13-	=13-	=13-	=13-	=13-
*	*	*	*	*	*	*	*	*	*	*2\left	*	*	*	*	*
4BB-/	.	2B-\	-bi	2B-\	-bi	1d	ti-	2f\]	.	2f\]	-bi	(>4dd\	.	2b-\	-bi
4C/	.	.	.	.	.	.	.	.	.	.	.	4cc\)	.	.	.
!	!	!	!	!	!	!	!	!	!	!	!	!	!	!LO:TX:t=P:problem=kreska pseudotaktowa	!
4D/	.	2BB-/	ti-	2B-\	ti-	.	.	2g\	.	2r	.	1b-\	.	2r	.
4E-/	.	.	.	.	.	.	.	.	.	.	.	.	.	.	.
1F	.	(>2F\	.	1A	.	1e-X	.	1f	.	1a	ti-	.	.	1cc	ti-
!	!	!	!	!	!	!	!	!	!	!	!	!LO:TX:t=P:problem=kreska pseudotaktowa	!	!	!
.	.	2FF/)	.	.	.	.	.	.	.	.	.	2a\	.	.	.
=14-	=14-	=14-	=14-	=14-	=14-	=14-	=14-	=14-	=14-	=14-	=14-	=14-	=14-	=14-	=14-
*	*	*	*	*	*	*	*	*	*	*2\right	*	*	*	*	*
2B-\	-bi	2BB-/	-bi	2B-\	-bi	2d\	-bi	2f\	-bi	2f\	-bi	2b-\	-bi	2b-\	-bi
!LO:TX:t=P:problem=kreska pseudotaktowa	!	!LO:TX:t=P:problem=kreska pseudotaktowa	!	!LO:TX:t=P:problem=kreska pseudotaktowa	!	!LO:TX:t=P:problem=kreska pseudotaktowa	!	!LO:TX:t=P:problem=kreska pseudotaktowa	!	!LO:TX:t=P:problem=kreska pseudotaktowa	!	!	!	!	!
2r	.	2r	.	2r	.	2r	.	2r	.	2r	.	2b-\	Qui-	2b-\	Qui-
!LO:TX:b:t=i	!	!LO:TX:b:t=i	!	!LO:TX:b:t=i	!	!LO:TX:b:t=i	!	!LO:TX:b:t=i	!	!LO:TX:b:t=i	!	!	!	!	!
!LO:TX:t=P:problem=kreska pseudotaktowa	!	!LO:TX:t=P:problem=kreska pseudotaktowa	!	!LO:TX:t=P:problem=kreska pseudotaktowa	!	!LO:TX:t=P:problem=kreska pseudotaktowa	!	!LO:TX:t=P:problem=kreska pseudotaktowa	!	!LO:TX:t=P:problem=kreska pseudotaktowa	!	!	!	!	!
1r	.	1r	.	1r	.	1r	.	1r	.	1r	.	2a/	-a	2ff\	-a
.	.	.	.	.	.	.	.	.	.	.	.	2fny/	per	2ff\	per
=15-	=15-	=15-	=15-	=15-	=15-	=15-	=15-	=15-	=15-	=15-	=15-	=15-	=15-	=15-	=15-
2r	.	1B-	Qui-	2r	.	1d	Qui-	2r	.	1f	Qui-	2b-\	San-	2dd\	San-
2B-\	Qui-	.	.	2d\	Qui-	.	.	2b-\	Qui-	.	.	2b-\	-ctam	2b-\	-ct(am)
2A\	-a	2A\	-a	2f\	-a	2c\	-a	2a\	-a	2f\	-a	1cc	San-	2b-\	Cru-
!	!	!	!	!	!	!	!	!	!	!	!	!	!	!LO:TX:t=P:problem=kreska pseudotaktowa	!
2F\	per	2A\	per	2f\	per	2c\	per	2f\	per	2f\	per	.	.	2a\	-cem
=16-	=16-	=16-	=16-	=16-	=16-	=16-	=16-	=16-	=16-	=16-	=16-	=16-	=16-	=16-	=16-
2D/	San-	4B-\	San-	2d\	San-	2d\	San-	2b-\	San-	2g\	San-	1dd	-ctam	4b-\	San-
.	.	4A\	-ctam	.	.	.	.	.	.	.	.	.	.	4cc\	-ct(am)
2BB-/	-ctam	4B-\	Cru-	2d\	-ctam	2B-\	-ctam	2b-\	-ctam	2g\	-ctam	.	.	4dd\	Cru-
.	.	4G\	-cem	.	.	.	.	.	.	.	.	.	.	4een\	-cem
2A\	Cru-	1A	tu-	2c\	Cru-	4c\	San-	(>4f\	Cru-	4a\	San-	1cc	Cru-	1ff	tu-
.	.	.	.	.	.	4B-\	-ctam	4g\)	.	4g\	-ct(am)	.	.	.	.
2A\	-cem	.	.	2c\	-cem	4c\	Cru-	2a\	-cem	4a\	Cru-	.	.	.	.
.	.	.	.	.	.	4A\	-cem	.	.	4f\	-cem	.	.	.	.
=17-	=17-	=17-	=17-	=17-	=17-	=17-	=17-	=17-	=17-	=17-	=17-	=17-	=17-	=17-	=17-
1G	tu-	(>2G\	.	2d\	tu-	2B-\	tu-	(>2b-\	tu-	1g	tu-	2b-\	-cem	2ff\	.
!	!	!	!	!	!	!	!	!	!	!	!	!	!	!LO:TX:t=P:problem=kreska pseudotaktowa	!
.	.	2cny\)	.	2en\	.	(>4c\	.	2cc\)	.	.	.	2b-\	per	2een\	.
.	.	.	.	.	.	4B-\)	.	.	.	.	.	.	.	.	.
!	!	!	!	!	!	!	!	!	!	!	!	!	!	!LO:LB:g=original	!
2F\	-am	2F\	-am	2f\	-am	2c\	-am	2a\	-am	4a\	-am	2a\	San-	4ff\	-am
.	.	.	.	.	.	.	.	.	.	4f\	per	.	.	4a\	per
!	!	!	!	!	!	!	!	!LO:TX:t=P:problem=kreska pseudotaktowa	!	!	!	!	!	!	!
2F\	per	4F\	San-	2c\	tu-	2c\	per	2r	.	4g\	San-	2a\	-ctam	4b-\	San-
!	!	!	!	!	!	!	!	!	!	!	!	!	!	!LO:TX:t=P:problem=kreska pseudotaktowa	!
.	.	4F\	-ctam	.	.	.	.	.	.	4a\	-ctam	.	.	4cc\	-ctam
=18-	=18-	=18-	=18-	=18-	=18-	=18-	=18-	=18-	=18-	=18-	=18-	=18-	=18-	=18-	=18-
4D/	San-	2B-\	Cru-	2d\	.	2d\	San-	4f\	San	2b-\	Cru-	4dd\	San-	2dd\	Cru-
4C/	-ct(am)	.	.	.	.	.	.	4e-\	ctam	.	.	4cc\	.	.	.
4D/	Cru-	2BB-/	-cem	2B-\	.	2d\	-ctam	4f\	Cru	2b-\	-cem	2b-\	-ct(am)	2dd\	-cem
4E-/	-cem	.	.	.	.	.	.	4g\	cem	.	.	.	.	.	.
1F	tu-	2F\	tu-	1c	.	4e-X\	San-	1f	tu-	1a	tu-	4cc\	San-	1ee-y	tu-
.	.	.	.	.	.	4d\	-ctam	.	.	.	.	4b-\	-ctam	.	.
.	.	2FF/	.	.	.	4e-\	Cru-	.	.	.	.	4cc\	Cru-	.	.
!	!	!	!	!	!	!	!	!	!	!	!	!LO:TX:t=P:problem=kreska pseudotaktowa	!	!	!
.	.	.	.	.	.	4c\	-cem	.	.	.	.	4a\	-cem	.	.
!	!	!	!	!	!	!	!	!	!	!	!	!LO:LB:g=original	!	!	!
=19-	=19-	=19-	=19-	=19-	=19-	=19-	=19-	=19-	=19-	=19-	=19-	=19-	=19-	=19-	=19-
2BB-/	-am	2BB-/	-am	2B-\	-am	1d	tu-	2b-\	-am	2g\	.	(>2b-\	tu-	2dd\	-am
!	!	!LO:TX:t=P:problem=kreska pseudotaktowa	!	!LO:TX:t=P:problem=kreska pseudotaktowa	!	!	!	!LO:TX:t=P:problem=kreska pseudotaktowa	!	!	!	!	!	!LO:TX:t=P:problem=kreska pseudotaktowa	!
2B-\	per	2r	.	2r	.	.	.	2r	.	2f\	.	2a\)	.	2r	.
!LO:LB:g=original	!	!	!	!LO:LB:g=original	!	!	!	!	!	!LO:LB:g=original	!	!	!	!	!
2c\	San-	2r	.	1c	San-	1c	.	(>2g\	tu-	2en\	-am	2g\	.	(>2cc\	San-
2F\	-ctam	2F\	per	.	.	.	.	2f\)	.	2f\	per	2a\	.	2a\)	.
=20-	=20-	=20-	=20-	=20-	=20-	=20-	=20-	=20-	=20-	=20-	=20-	=20-	=20-	=20-	=20-
!	!	!	!	!	!	!	!	!LO:TX:a:t=P:problem=♮ above	!	!	!	!	!	!	!
2c\	San-	1c	San-	2c\	-ctam	1c	-am	2en\	-am	2eny\	San-	2g\	-am	2g\	-ctam
2C/	.	.	.	2r	.	.	.	2r	.	4a\	.	2cc\	per	4cc\	San-
.	.	.	.	.	.	.	.	.	.	4g\	-ctam	.	.	4b-\	-ct(am)
!	!	!LO:LB:g=original	!	!	!	!	!	!LO:LB:g=original	!	!	!	!	!	!	!
2D\	-ctam	2d\	-ctam	1d	San-	1d	tu-	2a\	San-	(>2f#X\	Cru-	2a\	San-	(>2a\	Cru-
!LO:TX:t=P:problem=kreska pseudotaktowa	!	!	!	!	!	!	!	!	!	!	!	!	!	!LO:TX:t=P:problem=kreska pseudotaktowa	!
2r	.	2G\	per	.	.	.	.	2g\	.	2g\)	-cem	2dd\	-ctam	2b-\)	.
=21-	=21-	=21-	=21-	=21-	=21-	=21-	=21-	=21-	=21-	=21-	=21-	=21-	=21-	=21-	=21-
2D\	Cru-	2D/	San-	2d\	-ctam	2c\	-am	2f#X\	-ctam	1a	tu-	2a\	Cru-	2a\	-cem
!	!	!	!	!LO:TX:t=P:problem=kreska pseudotaktowa	!	!	!	!LO:TX:t=P:problem=kreska pseudotaktowa	!	!	!	!	!	!	!
2d\	-cem	2D/	-ctam	2r	.	2r	.	2r	.	.	.	2a\	-cem	[>2dd\	tu-
!	!	!	!	!	!	!LO:LB:g=original	!	!	!	!	!	!	!	!	!
1e-X	tu-	4E-y/	San-	1c	Cru-	2r	.	1g	Cru-	4g\	-am	(>2b-\	San-	2dd\]	.
.	.	4D/	-ctam	.	.	.	.	.	.	4fny\	per	.	.	.	.
.	.	4E-/	Cru-	.	.	1c\	San-	.	.	4g\	San-	2cc\)	.	1cc\	.
.	.	4C/	-cem	.	.	.	.	.	.	4a\	-ctam	.	.	.	.
=22-	=22-	=22-	=22-	=22-	=22-	=22-	=22-	=22-	=22-	=22-	=22-	=22-	=22-	=22-	=22-
1d	.	(>2D\	tu-	1d	-cem	.	.	2fn\	-cem	2b-\	Cru-	1dd	-ctam	.	.
!	!	!	!	!	!	!	!	!LO:TX:t=P:problem=kreska pseudotaktowa	!	!	!	!	!	!	!
.	.	2G\)	.	.	.	2B-\	-ctam	2r	.	2f\	-cem	.	.	[>2b-\	.
1c	.	(<2C/	.	2c\	tu-	(>2e-X\	tu-	1f	tu-	(>2g\	.	1ee-X	tu-	2b-\]	.
.	.	2F\)	.	2A\	.	2f\)	.	.	.	2a\)	tu-	.	.	2a\	.
=23-	=23-	=23-	=23-	=23-	=23-	=23-	=23-	=23-	=23-	=23-	=23-	=23-	=23-	=23-	=23-
!LO:TX:t=P:problem=kreska pseudotaktowa	!	!LO:TX:t=P:problem=kreska pseudotaktowa	!	!LO:TX:t=P:problem=kreska pseudotaktowa	!	!LO:TX:t=P:problem=kreska pseudotaktowa	!	!	!	!	!	!LO:TX:t=P:problem=kreska pseudotaktowa	!	!LO:TX:t=P:problem=kreska pseudotaktowa	!
1B-	-am	1BB-	-am	1B-	-am	1d	-am	1f	-am	1b-	-am	1dd	-am	1b-	-am
2E-\	re-	2G\	re-	2c\	re-	2c\	re-	2g\	re-	2g\	re-	2cc\	re-	2ee-\	re-
!	!	!	!	!	!	!LO:TX:t=P:problem=kreska pseudotaktowa	!	!	!	!	!	!	!	!	!
2G\	-de-	2En\	-de-	2d\	-de-	2B-\	-de-	2e-X\	-de-	2g\	-de-	2dd\	-de-	2dd\	-de-
=24-	=24-	=24-	=24-	=24-	=24-	=24-	=24-	=24-	=24-	=24-	=24-	=24-	=24-	=24-	=24-
2F\	-mi-	2F\	-mi-	2c\	-mi-	2c\	-mi-	2f\	-mi-	2a\	-mi-	2ee-X\	-mi-	2cc\	-mi-
!	!	!	!	!	!	!	!	!	!	!LO:TX:t=P:problem=kreska pseudotaktowa	!	!	!	!	!
2B-\	-sti	2B-\	-sti	2d\	-sti	2B-\	-sti	2f\	-sti	2b-,\	-sti	2dd\	-ſti	2dd\	-ſti
(<2F\	mun-	1F	mun-	2c\	mun-	1c	mun-	[>1f	mun-	(>2b-\	mund-	1cc	mun-	2cc\	mun-
2FF/)	.	.	.	2A\	.	.	.	.	.	2a\)	.	.	.	2ee-\	.
=25-	=25-	=25-	=25-	=25-	=25-	=25-	=25-	=25-	=25-	=25-	=25-	=25-	=25-	=25-	=25-
2BB-/	-dum	4BB-/	-dum	2B-\	-dum	4d\	.	4f\]	.	2b-\	-um	2b-\	-dum	1dd	-dum
.	.	4C/	.	.	.	4c\	-dum	4e-\	.	.	.	.	.	.	.
2B-\	mun-	4D/	.	2d\	mun-	4d\	.	4f\	-dum	2b-\	mun-	2b-\	mun-	.	.
.	.	4Eny/	.	.	.	4e-X\	.	4g\	.	.	.	.	.	.	.
2F\	.	1F	mun-	2e-X\	.	1c	mun-	1f	mun-	1a	.	1cc	.	1cc	mun-
2FF/	.	.	.	2c\	.	.	.	.	.	.	.	.	.	.	.
=26-	=26-	=26-	=26-	=26-	=26-	=26-	=26-	=26-	=26-	=26-	=26-	=26-	=26-	=26-	=26-
!	!	!	!	!LO:TX:t=P:problem=kreska pseudotaktowa	!	!	!	!	!	!LO:TX:t=P:problem=kreska pseudotaktowa	!	!LO:TX:t=P:problem=kreska pseudotaktowa	!	!	!
0En;<	-dum	0En;<	-dum	0c;<	-dum	0B-;<	-dum	0g;<	-dum	0b-;<	-dum	0cc;<	-dum	0dd-X;<	-dum
.	.	.	.	.	.	.	.	.	.	.	.	.	.	.	.
!	!	!	!	!	!	!	!	!	!	!	!	!	!	!LO:LB:g=original	!
=27-	=27-	=27-	=27-	=27-	=27-	=27-	=27-	=27-	=27-	=27-	=27-	=27-	=27-	=27-	=27-
(>2F\	mun-	(>2F\	mun-	2c\	mun-	(>2c\	mun-	2a\	mun-	2a\	mun-	(>2cc\	mun-	2cc\	mun-
2B-\)	.	2B-\)	.	2B-\	-d(um)	2B-\)	.	2f\	-dum	[<2b-\	.	2b-\)	.	2ddn\	.
2F\	.	1F	.	1c	mun-	(>2c\	.	1a	mun-	2b-\]	.	1cc	.	1ee-	.
2FF/	.	.	.	.	.	2e-\)	.	.	.	2a\	.	.	.	.	.
!	!	!	!	!	!	!	!	!	!	!LO:LB:g=original	!	!	!	!	!
=28-	=28-	=28-	=28-	=28-	=28-	=28-	=28-	=28-	=28-	=28-	=28-	=28-	=28-	=28-	=28-
!LO:TX:t=P:problem=kreska pseudotaktowa	!	!	!	!	!	!	!	!	!	!	!	!	!	!	!
1BB-	-dum	2BB-/	-dum	2B-\	-d(um)	2d\	-dum	2f\	-dum	2b-\	-dum	2dd\	-dum	2dd\	-dum
!	!	!LO:TX:t=P:problem=kreska pseudotaktowa	!	!LO:TX:t=P:problem=kreska pseudotaktowa	!	!LO:TX:t=P:problem=kreska pseudotaktowa	!	!LO:TX:t=P:problem=kreska pseudotaktowa	!	!LO:TX:t=P:problem=kreska pseudotaktowa	!	!	!	!	!
.	.	2r	.	2r	.	2r	.	2r	.	2r	.	2dd\	re-	2ff\	re-
*	*	*	*	*custos:b	*	*	*	*	*	*	*	*	*	*	*
!	!	!LO:TX:b:t=i	!	!LO:TX:b:t=2	!	!LO:TX:b:t=i	!	!LO:TX:b:t=2	!	!LO:TX:b:t=i	!	!	!	!	!
!	!	!LO:TX:t=P:problem=kreska pseudotaktowa	!	!LO:TX:t=P:problem=kreska pseudotaktowa	!	!LO:TX:t=P:problem=kreska pseudotaktowa	!	!LO:TX:t=P:problem=kreska pseudotaktowa	!	!LO:TX:t=P:problem=kreska pseudotaktowa	!	!	!	!	!
!	!	!	!	!LO:N:vis=0	!	!	!	!LO:N:vis=0	!	!	!	!	!	!	!
2B-\	re-	1r	.	0r	.	1r	.	0r	.	1r	.	2cc\	.	2ee-\	.
2B-\	-de-	.	.	.	.	.	.	.	.	.	.	2b-\	-de-	2dd\	-de-
=29-	=29-	=29-	=29-	=29-	=29-	=29-	=29-	=29-	=29-	=29-	=29-	=29-	=29-	=29-	=29-
1F	-mi-	2r	.	.	.	2r	.	.	.	2r	.	1a	-mi-	0cc	-misti
!	!	!	!	!	!	!	!	!	!	!LO:TX:t=P:problem=kreska pseudotaktowa	!	!	!	!	!
.	.	2F\	re-	.	.	2d\	re-	.	.	2f\	re-	.	.	.	.
!LO:LB:g=original	!	!	!	!LO:LB:g=original	!	!	!	!	!	!	!	!LO:LB:g=original	!	!	!
!	!	!	!	!	!	!	!	!	!	!	!	!LO:TX:t=P:problem=kreska pseudotaktowa	!	!	!
1G	-sti	2G\	.	2r	.	2c\	.	2r	.	2e-y\	.	1a	-sti	.	.
.	.	2E-X\	-de-	2B-\	mun-	2B-\	-de-	2g\	mun-	2d\	-de-	.	.	.	.
!	!	!LO:LB:g=original	!	!	!	!	!	!	!	!	!	!	!	!	!
=30-	=30-	=30-	=30-	=30-	=30-	=30-	=30-	=30-	=30-	=30-	=30-	=30-	=30-	=30-	=30-
2F\	mun-	2F\	-mi-	2c\	.	2c\	-mi-	2a\	.	2f\	-mi-	2ee-X\	mun-	(>2cc\	mun-
!	!	!	!	!	!	!	!	!LO:TX:t=P:problem=kreska pseudotaktowa	!	!	!	!	!	!	!
2B-\	.	2B-\	-sti	2d\	.	2B-\	-sti	[>2b-\	.	2f\	-sti	2dd\	.	2dd\)	.
2F\	.	1F	mun-	(>2c\	.	2c\	mun-	2b-\]	.	1a	mun-	1cc	.	1cc	.
2FF/	.	.	.	2A\)	.	2e-X\	.	2a\	.	.	.	.	.	.	.
=31-	=31-	=31-	=31-	=31-	=31-	=31-	=31-	=31-	=31-	=31-	=31-	=31-	=31-	=31-	=31-
!LO:TX:t=P:problem=kreska pseudotaktowa	!	!LO:TX:t=P:problem=kreska pseudotaktowa	!	!LO:TX:t=P:problem=kreska pseudotaktowa	!	!LO:TX:t=P:problem=kreska pseudotaktowa	!	!LO:TX:t=P:problem=kreska pseudotaktowa	!	!LO:TX:t=P:problem=kreska pseudotaktowa	!	!LO:TX:t=P:problem=kreska pseudotaktowa	!	!LO:TX:t=P:problem=kreska pseudotaktowa	!
0BB-;<	-dum	0BB-;<	-dum	0G;<	-dum	0d;<	-dum	0b-	-dum	0f	-dum	0b-	-dum	0dd	-dum
.	.	.	.	.	.	.	.	.	.	.	.	.	.	.	.
!	!	!	!	!	!	!LO:LB:g=original	!	!LO:LB:g=original	!	!	!	!	!	!	!
=32-	=32-	=32-	=32-	=32-	=32-	=32-	=32-	=32-	=32-	=32-	=32-	=32-	=32-	=32-	=32-
*M3/2	*	*M3/2	*	*M3/2	*	*M3/2	*	*M3/2	*	*M3/2	*	*M3/2	*	*M3/2	*
!LO:TX:i:a:t=andante	!	!LO:TX:i:a:t=andante	!	!LO:TX:i:a:t=andante	!	!LO:TX:i:a:t=andante	!	!LO:TX:i:a:t=andante	!	!LO:TX:i:a:t=andante	!	!LO:TX:i:a:t=andante	!	!	!
2r	.	1G	Tu-	2r	.	1d	Tu-	1g	Tu-	(>1g	Tu-	2b-\	Tu-	(>2dd\	Tu-
!	!	!	!	!	!	!	!	!	!	!	!	!	!	!LO:TX:i:a:t=andante	!
2G\	Tu-	.	.	2d\	Tu-	.	.	.	.	.	.	2a\	.	2cc\)	.
!	!	!	!	!	!	!	!	!	!	!LO:TX:t=P:problem=kreska pseudotaktowa	!	!	!	!	!
2GG/	-am	2GG/	-am	2B-\	-am	2d\	-am	2g\	-am	2g\)	-am	2g,\	-am	2b-\	-am
=33-	=33-	=33-	=33-	=33-	=33-	=33-	=33-	=33-	=33-	=33-	=33-	=33-	=33-	=33-	=33-
2r	.	1D	Cru-	2r	.	1d	Cru-	(>2f#X\	Cru-	(>2a\	Cru-	(>2a\	Cru-	(>2cc\	Cru-
2d\	Cru-	.	.	2d\	Cru-	.	.	2g\)	.	2g\)	.	2b-\)	.	2b-\)	.
!	!	!	!	!	!	!	!	!	!	!LO:TX:t=P:problem=kreska pseudotaktowa	!	!	!	!LO:TX:t=P:problem=kreska pseudotaktowa	!
2D/	-cem	2D/	-cem	2A\	-cem	2d\	-cem	2a\	-cem	2f#X\	-cem	2cc,\	-cem	2a\	-cem
=34-	=34-	=34-	=34-	=34-	=34-	=34-	=34-	=34-	=34-	=34-	=34-	=34-	=34-	=34-	=34-
1G	a-	(>2B-\	a-	1d	a-	2d\	a-	(>2d\	a-	1b-	a-	1b-	a-	1dd\	a-
.	.	2A\)	.	.	.	2c\	.	2g\)	.	.	.	.	.	.	.
2C/	-do-	2G\	-do-	2e-X\	-do-	2B-\	-do-	2a\	-do-	2g\	-do-	2cc\	-do-	2ee-\	-do-
=35-	=35-	=35-	=35-	=35-	=35-	=35-	=35-	=35-	=35-	=35-	=35-	=35-	=35-	=35-	=35-
(<4D/	-ra-	1d	-ra-	2.d\	-ra-	1d	-ra-	(>2.a\	-ra-	4f#X\	-ra-	2b-\	-ra-	1dd	-ra-
4C#X/)	.	.	.	.	.	.	.	.	.	4e-\	.	.	.	.	.
(<4D/	.	.	.	.	.	.	.	.	.	4f#\	.	4a\	.	.	.
4En/)	.	.	.	4c\	.	.	.	4g\)	.	4g\	.	4g\	.	.	.
!	!	!	!	!	!	!	!	!LO:TX:t=P:problem=kreska pseudotaktowa	!	!	!	!LO:TX:t=P:problem=kreska pseudotaktowa	!	!	!
(>4F#X\	-mus	2D/	-mus	2d\	-mus	2d\	-mus	2f#X\	-mus	4a\	-mus	2a\	-mus	2dd\	-mus
4D\)	.	.	.	.	.	.	.	.	.	4f#X\	.	.	.	.	.
=36-	=36-	=36-	=36-	=36-	=36-	=36-	=36-	=36-	=36-	=36-	=36-	=36-	=36-	=36-	=36-
1G	a-	1G	a-	1d	a-	1d	a-	2r	.	2b-\	.	1dd	a-	(>2dd\	a-
.	.	.	.	.	.	.	.	2g\	a-	2a\	a-	.	.	2cc\)	.
2c\	-do-	2GG/	-do-	2B-\	-do-	(>4B-\	-do-	2g\	-do-	2g\	-do-	2ee-X\	-do-	2b-\	-do-
.	.	.	.	.	.	4c\)	.	.	.	.	.	.	.	.	.
=37-	=37-	=37-	=37-	=37-	=37-	=37-	=37-	=37-	=37-	=37-	=37-	=37-	=37-	=37-	=37-
1d	-ra-	2.D\	-ra-	1d	-ra-	1d	-ra-	2g\	-ra-	2.a\	-ra-	1dd	-ra-	2b-\	-ra-
.	.	.	.	.	.	.	.	4f#X\	.	.	.	.	.	(>4a\	.
.	.	4E-\	.	.	.	.	.	4e-\	.	4g\	.	.	.	4g\)	.
!LO:TX:t=P:problem=kreska pseudotaktowa	!	!LO:TX:t=P:problem=kreska pseudotaktowa	!	!LO:TX:t=P:problem=kreska pseudotaktowa	!	!LO:TX:t=P:problem=kreska pseudotaktowa	!	!LO:TX:t=P:problem=kreska pseudotaktowa	!	!LO:TX:t=P:problem=kreska pseudotaktowa	!	!LO:TX:t=P:problem=kreska pseudotaktowa	!	!LO:TX:t=P:problem=kreska pseudotaktowa	!
2c\	-mus	2D\	-mus	2d\	-mus	2d\	-mus	2f#X\	-mus	2a\	-mus	2dd\	-mus	2a\	-mus
=38-	=38-	=38-	=38-	=38-	=38-	=38-	=38-	=38-	=38-	=38-	=38-	=38-	=38-	=38-	=38-
4B-\	Do-	2.B-\	Do-	2.B-\	Do-	4d\	Do-	2.b-\	Do-	2.b-\	Do-	2.ff\	Do-	2.dd\	Do-
4A\	.	.	.	.	.	4c\	.	.	.	.	.	.	.	.	.
4B-\	.	.	.	.	.	4d\	.	.	.	.	.	.	.	.	.
4c\	.	4B-\	-mi-	4c\	-mi-	4e-\	.	4a\	-mi-	4g\	-mi-	4ff\	-mi-	4cc\	-mi-
!	!	!LO:TX:t=P:problem=kreska pseudotaktowa	!	!	!	!	!	!	!	!LO:TX:t=P:problem=kreska pseudotaktowa	!	!	!	!	!
4d\	.	2B-\	-ne	2d\	-ne	4f\	.	2b-\	-ne	2fny\	-ne	2ff,\	-ne	2b-\	-ne
4B-\	.	.	.	.	.	4d\	.	.	.	.	.	.	.	.	.
!	!	!	!	!	!	!	!	!	!	!LO:LB:g=original	!	!	!	!LO:LB:g=original	!
=39-	=39-	=39-	=39-	=39-	=39-	=39-	=39-	=39-	=39-	=39-	=39-	=39-	=39-	=39-	=39-
2.F\	.	2.F\	Do-	2.c\	Do-	2.c\	.	2.a\	Do-	(>4f\	tu-	2.cc\	Do-	4a\	tu-
.	.	.	.	.	.	.	.	.	.	4e-\)	.	.	.	4g\	.
.	.	.	.	.	.	.	.	.	.	(>4f\	.	.	.	4a\	.
4F\	-mi-	4F\	-mi-	4B-\	-mi-	4d\	-mi-	4a\	-mi-	4g\)	.	4cc\	-mi-	4b-\	.
!	!	!LO:TX:t=P:problem=kreska pseudotaktowa	!	!	!	!	!	!	!	!	!	!	!	!	!
2F\	-ne	2F\	-ne	2A\	-ne	2c\	-ne	2a\	-ne	4a\	-am	2cc\	-ne	4cc\	-am
!	!	!	!	!	!	!	!	!	!	!LO:TX:t=P:problem=kreska pseudotaktowa	!	!	!	!	!
.	.	.	.	.	.	.	.	.	.	4f\	.	.	.	4a\	.
=40-	=40-	=40-	=40-	=40-	=40-	=40-	=40-	=40-	=40-	=40-	=40-	=40-	=40-	=40-	=40-
2BB-/	Do-	2B-\	Do-	2d\	Do-	1d	Glo-	2b-\	Glo-	1b-	Glo-	(>2dd\	Glo-	2ff\	Glo-
2E-\	-mi-	2G\	-mi-	2c\	-mi-	.	.	2fny\	.	.	.	2cc\)	.	2ee-\	.
!	!	!	!	!	!	!	!	!	!	!LO:TX:t=P:problem=kreska pseudotaktowa	!	!	!	!	!
2G\	-ne	2E-\	-ne	2d\	-ne	2d,\	-ri-	2b-\	-ri-	2b-\	-ri-	2b-\	-ri-	2dd\	-ri-
.	.	.	.	.	.	.	.	.	.	.	.	.	.	8qqee-/	.
!LO:LB:g=original	!	!	!	!	!	!	!	!	!	!	!	!LO:LB:g=original	!	!	!
=41-	=41-	=41-	=41-	=41-	=41-	=41-	=41-	=41-	=41-	=41-	=41-	=41-	=41-	=41-	=41-
2F\	tu-	1F	tu-	1c	tu-	1c	-o-	1f	-o-	1a	-o-	2b-\	-o-	1dd	-o-
4F\	.	.	.	.	.	.	.	.	.	.	.	4a/	.	.	.
4E-\	.	.	.	.	.	.	.	.	.	.	.	4g/	.	.	.
!	!	!LO:TX:t=P:problem=kreska pseudotaktowa	!	!	!	!	!	!	!	!LO:TX:t=P:problem=kreska pseudotaktowa	!	!	!	!LO:TX:t=P:problem=kreska pseudotaktowa	!
4D/	-am	2FF/	-am	2c\	-am	2c,\	-sam	2f\	-sam	2a\	-sam	4f/	.	2cc\	-sam
!	!	!	!	!	!	!	!	!	!	!	!	!LO:TX:t=P:problem=kreska pseudotaktowa	!	!	!
4C/	.	.	.	.	.	.	.	.	.	.	.	4e-/	-sam	.	.
!	!	!	!	!LO:LB:g=original	!	!	!	!	!	!	!	!	!	!	!
=42-	=42-	=42-	=42-	=42-	=42-	=42-	=42-	=42-	=42-	=42-	=42-	=42-	=42-	=42-	=42-
1BB-	Glo-	(>2B-\	Glo-	2r	.	(>2d\	Glo-	2f\	Glo-	2f\	Glo-	2d/	Glo-	2r	.
.	.	2G\)	.	2d\	Glo-	2c\)	.	(>4g\	.	2e-\	.	2f/	.	2dd\	Glo-
.	.	.	.	.	.	.	.	4a\)	.	.	.	.	.	.	.
!	!	!	!	!	!	!	!	!	!	!LO:TX:t=P:problem=kreska pseudotaktowa	!	!	!	!	!
2G\	-ri-	2E-\	-ri-	2B-\	-ri-	2B-\	-ri-	2b-\	-ri-	2d\	-ri-	2b-\	-ri-	2dd\	-ri-
!	!	!LO:LB:g=original	!	!	!	!	!	!	!	!	!	!	!	!	!
=43-	=43-	=43-	=43-	=43-	=43-	=43-	=43-	=43-	=43-	=43-	=43-	=43-	=43-	=43-	=43-
1F	-o-	4F\	-o-	1B-	-o-	1B-	-o-	(>4a\	-o-	1f	-o-	1b-	-o-	1dd	-o-
.	.	(>4E-\	.	.	.	.	.	4g\	.	.	.	.	.	.	.
.	.	4F\)	.	.	.	.	.	(>4a\)	.	.	.	.	.	.	.
.	.	(>4G\	.	.	.	.	.	4b-\)	.	.	.	.	.	.	.
*	*	*	*	*	*	*	*	*custos:f	*	*	*	*	*	*	*
!LO:TX:t=P:problem=kreska pseudotaktowa	!	!	!	!LO:TX:t=P:problem=kreska pseudotaktowa	!	!LO:TX:t=P:problem=kreska pseudotaktowa	!	!LO:TX:t=P:problem=kreska pseudotaktowa	!	!LO:TX:t=P:problem=kreska pseudotaktowa	!	!LO:TX:t=P:problem=kreska pseudotaktowa	!	!LO:TX:t=P:problem=kreska pseudotaktowa	!
2FF/	-sam	4A\)	.	2c\	-sam	2A\	-sam	2cc\	-sam	2f\	-sam	2a\	-sam	2cc\	-sam
!	!	!LO:TX:t=P:problem=kreska pseudotaktowa	!	!	!	!	!	!	!	!	!	!	!	!	!
.	.	4G\	-sam	.	.	.	.	.	.	.	.	.	.	.	.
=44-	=44-	=44-	=44-	=44-	=44-	=44-	=44-	=44-	=44-	=44-	=44-	=44-	=44-	=44-	=44-
.	.	.	.	.	.	.	.	.	.	.	.	.	.	8qqdd/	.
!	!	!	!	!	!	!	!	!LO:LB:g=original	!	!	!	!	!	!	!
!	!	!	!	!	!	!	!	!	!	!	!	!	!	!LO:TX:t=P:problem=kreska pseudotaktowa	!
2D\	re-	(>2A\	re-	1.d	re-	1.d	re-	4f#X\	-re-	4a\	re-	1.a	re-	1.cc	re-
.	.	.	.	.	.	.	.	4e-\	.	4g\	.	.	.	.	.
2F#X\	.	2F#X\)	.	.	.	.	.	4f#\	.	4a\	.	.	.	.	.
.	.	.	.	.	.	.	.	4g\	.	4b-\	.	.	.	.	.
!	!	!	!	!	!	!	!	!	!	!LO:TX:t=P:problem=kreska pseudotaktowa	!	!	!	!	!
2D\	.	2D\	.	.	.	.	.	2a\	.	2cc\	.	.	.	.	.
=45-	=45-	=45-	=45-	=45-	=45-	=45-	=45-	=45-	=45-	=45-	=45-	=45-	=45-	=45-	=45-
2.G\	-Co-	2.G\	-Co-	2.d\	-Co-	2.d\	-co-	2.g\	-Co-	2.b-\	-Co-	4g/	-Co-	(>4b-\	-Co-
!	!	!	!	!	!	!	!	!	!	!	!	!LO:TX:b:t=P:problem=# below	!	!	!
.	.	.	.	.	.	.	.	.	.	.	.	4f#X/	.	4a\)	-li-
.	.	.	.	.	.	.	.	.	.	.	.	4g/	-li-	(>4b-\	.
4G\	-li-	4G\	-li-	4d\	-li-	4c\	-li-	4g\	-li-	4b-\	-li-	4a/	.	4cc\)	.
!	!	!	!	!	!	!	!	!	!	!LO:TX:t=P:problem=kreska pseudotaktowa	!	!LO:TX:t=P:problem=kreska pseudotaktowa	!	!LO:TX:t=P:problem=kreska pseudotaktowa	!
2G\	-mus	2G\	-mus	2d\	-mus	2B-\	-mus	2g\	-mus	2b-\	-mus	2b-\	-mus	2dd\	-mus
!	!	!	!	!	!	!LO:LB:g=original	!	!	!	!	!	!	!	!	!
=46-	=46-	=46-	=46-	=46-	=46-	=46-	=46-	=46-	=46-	=46-	=46-	=46-	=46-	=46-	=46-
4D/	re-	(>2D\	re-	2r	.	1.d	re-	1.f#X	re-	2a\	re-	4f#X/	re-	1.dd	re-
4C#X/	.	.	.	.	.	.	.	.	.	.	.	4e-/	.	.	.
4D/	.	2F#X\)	.	2r	.	.	.	.	.	2f#X\	.	4f#/	.	.	.
4En/	.	.	.	.	.	.	.	.	.	.	.	4g/	.	.	.
!	!	!	!	!	!	!	!	!	!	!LO:TX:t=P:problem=kreska pseudotaktowa	!	!LO:TX:t=P:problem=kreska pseudotaktowa	!	!	!
4F#X\	.	2D\	.	2d\	re-	.	.	.	.	2a\	.	2a\	.	.	.
!LO:TX:t=P:problem=kreska pseudotaktowa	!	!	!	!	!	!	!	!	!	!	!	!	!	!	!
4D\	.	.	.	.	.	.	.	.	.	.	.	.	.	.	.
=47-	=47-	=47-	=47-	=47-	=47-	=47-	=47-	=47-	=47-	=47-	=47-	=47-	=47-	=47-	=47-
2.G\	-Co-	2.G\	-Co-	2.d\	-co-	2.d\	-co-	2.g\	-Co-	2.g\	-Co-	2.b-\	-Co-	2.dd\	-Co-
4G\	-li-	4G\	-li-	4e-\	-li-	4c\	-li-	4f#X\	-li-	4a\	-li-	4cc\	-li-	4cc\	-li-
!	!	!	!	!LO:TX:t=P:problem=kreska pseudotaktowa	!	!	!	!LO:TX:t=P:problem=kreska pseudotaktowa	!	!LO:TX:t=P:problem=kreska pseudotaktowa	!	!	!	!	!
2G\	-mus	2G\	-mus	2d\	-mus	2d\	-mus	2g\	-mus	2b-\	-mus	2dd\	-mus	2b-\	-mus
=48-	=48-	=48-	=48-	=48-	=48-	=48-	=48-	=48-	=48-	=48-	=48-	=48-	=48-	=48-	=48-
2C/	Paſ-	(<2E-/	Paſ-	1c	Paſ-	2r	.	2g\	Paſ-	2g\	Paſ-	1cc	Paſ-	1ee-	Paſ-
2D/	.	2D/)	.	.	.	2c\	Paſ-	2f#X\	.	2a\	.	.	.	.	.
!	!	!	!	!	!	!	!	!	!	!LO:TX:t=P:problem=kreska pseudotaktowa	!	!	!	!	!
2E-\	-ſi-	2C/	-ſi-	2c\	-ſi-	2c\	-ſi-	2g\	-ſi-	2g\	-ſi-	2cc\	-ſi-	2ee-\	-ſi-
!	!	!	!	!	!	!	!	!	!	!LO:LB:g=original	!	!	!	!	!
=49-	=49-	=49-	=49-	=49-	=49-	=49-	=49-	=49-	=49-	=49-	=49-	=49-	=49-	=49-	=49-
!	!	!	!	!	!	!	!	!	!	!	!	!LO:TX:t=P:problem=kreska pseudotaktowa	!	!	!
1.D	-o-	(>2D\	-o-	2d\	-o-	1.c	-o-	2f#X\	-o-	(>2f#X\	-o-	[>1.cc	-o-	2ee-\	-o-
.	.	2E-\)	.	2c\	.	.	.	2a\	.	2g\	.	.	.	2dd\	.
!	!	!	!	!	!	!	!	!	!	!LO:TX:t=P:problem=kreska pseudotaktowa	!	!	!	!	!
.	.	2F#X\	.	2d\	.	.	.	2f#\	.	2a\)	.	.	.	2cc\	.
=50-	=50-	=50-	=50-	=50-	=50-	=50-	=50-	=50-	=50-	=50-	=50-	=50-	=50-	=50-	=50-
!	!	!	!	!	!	!	!	!LO:TX:t=P:problem=kreska pseudotaktowa	!	!LO:TX:t=P:problem=kreska pseudotaktowa	!	!	!	!	!
2G\	-nem	1.G	-nem	2B-\	-nem	2d\	-nem	1.d	-nem	1.g	-nem	2cc\]	.	1.b-	-nem
2B-\	Paſ-	.	.	2B-\	Paſ-	2d\	paſ-	.	.	.	.	2b-\	.	.	.
2G\	-ſi-	.	.	2B-\	-ſi-	2d\	-ſi-	.	.	.	.	2a\	.	.	.
!LO:LB:g=original	!	!	!	!	!	!	!	!	!	!	!	!	!	!	!
=51-	=51-	=51-	=51-	=51-	=51-	=51-	=51-	=51-	=51-	=51-	=51-	=51-	=51-	=51-	=51-
!	!	!	!	!	!	!	!	!	!	!	!	!LO:TX:t=P:problem=kreska pseudotaktowa	!	!	!
1.c#X	-o-	(>2G\	Paſ-	1.A	-o-	2B-\	-o-	2g\	Paſ-	1a	Paſ-	1.b-	-nem	1een	Paſ-
.	.	2E-\)	.	.	.	2A\	.	2a\	-ſi-	.	.	.	.	.	.
!	!	!	!	!	!	!	!	!	!	!LO:TX:t=P:problem=kreska pseudotaktowa	!	!	!	!	!
.	.	2C#X/	-ſi-	.	.	2B-\	.	2g\	.	2a\	-ſi-	.	.	2ee\	-ſi-
!	!	!	!	!	!	!	!	!	!	!	!	!	!	!LO:LB:g=original	!
=52-	=52-	=52-	=52-	=52-	=52-	=52-	=52-	=52-	=52-	=52-	=52-	=52-	=52-	=52-	=52-
1d	.	2D\	-o-	2A\	-nem	1c	.	1a	-o-	2a\	-o-	2r	.	1ff#X	-o-
.	.	2c\	.	2d\	Paſ-	.	.	.	.	2f#X\	.	2cc\	Paſ-	.	.
!	!	!	!	!	!	!	!	!LO:TX:t=P:problem=kreska pseudotaktowa	!	!LO:TX:t=P:problem=kreska pseudotaktowa	!	!	!	!	!
2G\	.	2B-\	.	2d\	-ſi-	2B-\	.	[>2g\	.	2d\	.	2b-\	-ſi-	2gg\	.
!	!	!	!	!	!	!	!	!	!	!	!	!LO:LB:g=original	!	!	!
=53-	=53-	=53-	=53-	=53-	=53-	=53-	=53-	=53-	=53-	=53-	=53-	=53-	=53-	=53-	=53-
!	!	!	!	!	!	!	!	!	!	!LO:TX:t=P:problem=kreska pseudotaktowa	!	!	!	!	!
2C/	.	2c\	.	2c\	-o-	2c\	.	2g\]	.	1.a	.	2cc\	-o-	2ee-X\	.
!	!	!	!	!	!	!LO:TX:t=P:problem=kreska pseudotaktowa	!	!	!	!	!	!	!	!	!
1D	.	2d\	.	1d	.	1d	.	1f#X	.	.	.	2b-\	.	2dd\	.
.	.	2D/	.	.	.	.	.	.	.	.	.	2f#X/	.	2a\	.
=54-	=54-	=54-	=54-	=54-	=54-	=54-	=54-	=54-	=54-	=54-	=54-	=54-	=54-	=54-	=54-
*	*	*	*	*custos:d	*	*	*	*	*	*	*	*	*	*	*
!LO:TX:t=P:problem=kreska pseudotaktowa	!	!	!	!LO:TX:t=P:problem=kreska pseudotaktowa	!	!LO:TX:t=P:problem=kreska pseudotaktowa	!	!LO:TX:t=P:problem=kreska pseudotaktowa	!	!LO:TX:t=P:problem=kreska pseudotaktowa	!	!LO:TX:t=P:problem=kreska pseudotaktowa	!	!LO:TX:t=P:problem=kreska pseudotaktowa	!
1.GG	-nem	1.G	-nem	1.d	-nem	1.d	-nem	1.g	-nem	1.b-X	-nem	1.g	-nem	1.b-	-nem
!	!	!LO:LB:g=original	!	!	!	!	!	!	!	!	!	!	!	!	!
=55-	=55-	=55-	=55-	=55-	=55-	=55-	=55-	=55-	=55-	=55-	=55-	=55-	=55-	=55-	=55-
2D\	re-	(>2A\	re-	1.d	re-	1.d	re-	4f#X\	re-	4a\	re-	1.a	re-	1.cc	Re-
.	.	.	.	.	.	.	.	4e-\	.	4g\	.	.	.	.	.
2F#X\	.	2F#X\)	.	.	.	.	.	4f#\	.	4a\	.	.	.	.	.
.	.	.	.	.	.	.	.	4g\	.	4b-\	.	.	.	.	.
!	!	!	!	!	!	!	!	!	!	!LO:TX:t=P:problem=kreska pseudotaktowa	!	!	!	!	!
2D\	.	2D\	.	.	.	.	.	2a\	.	2cc\	.	.	.	.	.
=56-	=56-	=56-	=56-	=56-	=56-	=56-	=56-	=56-	=56-	=56-	=56-	=56-	=56-	=56-	=56-
2.G\	-Co-	2.G\	-Co-	2.d\	-co-	2.d\	-co-	2.g\	-Co-	2.b-\	-Co-	4g/	-Co-	4b-\	-co-
.	.	.	.	.	.	.	.	.	.	.	.	4f#X/	.	4a\	-li-
.	.	.	.	.	.	.	.	.	.	.	.	4g/	-li-	4b-\	.
4G\	-li-	4G\	-li-	4d\	-li-	4c\	-li-	4g\	-li-	4b-\	-li-	4a/	.	4cc\	.
!	!	!	!	!	!	!	!	!	!	!LO:TX:t=P:problem=kreska pseudotaktowa	!	!	!	!	!
2G\	-mus	2G\	-mus	2d\	-mus	2B-\	-mus	2g\	-mus	2b-\	-mus	2b-\	-mus	2dd\	-mus
=57-	=57-	=57-	=57-	=57-	=57-	=57-	=57-	=57-	=57-	=57-	=57-	=57-	=57-	=57-	=57-
!	!	!	!	!	!	!LO:TX:t=P:problem=kreska pseudotaktowa	!	!	!	!	!	!	!	!	!
4D/	re-	(>2D\	re-	2r	.	1.d	re-	1.f#X	re-	2a\	re-	4f#X/	re-	1.dd	re-
4C#X/	.	.	.	.	.	.	.	.	.	.	.	4e-/	.	.	.
4D/	.	2F#X\)	.	2r	.	.	.	.	.	2f#X\	.	4f#/	.	.	.
4E-/	.	.	.	.	.	.	.	.	.	.	.	4g/	.	.	.
!	!	!	!	!	!	!	!	!	!	!LO:TX:t=P:problem=kreska pseudotaktowa	!	!	!	!	!
4F#X\	.	2D\	.	2d\	re-	.	.	.	.	2a\	.	2a\	.	.	.
!LO:TX:t=P:problem=kreska pseudotaktowa	!	!	!	!	!	!	!	!	!	!	!	!	!	!	!
4D\	.	.	.	.	.	.	.	.	.	.	.	.	.	.	.
!	!	!	!	!	!	!	!	!LO:LB:g=original	!	!	!	!	!	!	!
=58-	=58-	=58-	=58-	=58-	=58-	=58-	=58-	=58-	=58-	=58-	=58-	=58-	=58-	=58-	=58-
2.G\	-Co-	2.G\	-co-	2.d\	-Co-	2.d\	-Co-	2.g\	-Co-	2.g\	-Co-	2.b-\	-Co-	2.dd\	-co-
4G\	-li-	4G\	-li-	4e-\	-li-	4c\	-li-	4f#X\	-li-	4a\	-li-	4cc\	-li-	4cc\	-li-
!	!	!	!	!	!	!	!	!	!	!LO:TX:t=P:problem=kreska pseudotaktowa	!	!	!	!LO:TX:t=P:problem=kreska pseudotaktowa	!
2G\	-mus	2G\	-mus	2d\	-mus	2d\	-mus	2g\	-mus	2b-\	-mus	2dd\	-mus	2b-\	-mus
=59-	=59-	=59-	=59-	=59-	=59-	=59-	=59-	=59-	=59-	=59-	=59-	=59-	=59-	=59-	=59-
2C/	Paſ-	2E-/	Paſ-	1c	Paſ-	2r	.	2g\	.	2g\	Paſ-	1cc	Paſ-	1ee-	Paſ-
2D/	.	2D/	.	.	.	2c\	Paſ-	2f#X\	Paſ-	2a\	.	.	.	.	.
!	!	!	!	!	!	!	!	!	!	!LO:TX:t=P:problem=kreska pseudotaktowa	!	!LO:TX:t=P:problem=kreska pseudotaktowa	!	!	!
2E-/	-ſi-	2Cny/	-ſi-	2c\	-ſi-	2c\	-ſi-	2g\	-ſi-	2g\	-ſi-	2cc\	-ſi-	2ee-\	-ſi-
!	!	!	!	!	!	!	!	!	!	!LO:LB:g=original	!	!	!	!	!
=60-	=60-	=60-	=60-	=60-	=60-	=60-	=60-	=60-	=60-	=60-	=60-	=60-	=60-	=60-	=60-
!	!	!	!	!	!	!LO:TX:t=P:problem=kreska pseudotaktowa	!	!	!	!	!	!	!	!	!
1.D	-o-	2D\	-o-	2d\	-o-	1.c	-o-	2f#X\	-o-	2f#X\	-o-	(>2cc\	-o-	(>2ee-\	-o-
.	.	2En\	.	2c\	.	.	.	2a\	.	2g\	.	2b-\)	.	2dd\)	.
!	!	!	!	!	!	!	!	!	!	!LO:TX:t=P:problem=kreska pseudotaktowa	!	!	!	!	!
.	.	2F#X\	.	2d\	.	.	.	2f#\	.	2a\	.	2a\	.	2cc\	.
=61-	=61-	=61-	=61-	=61-	=61-	=61-	=61-	=61-	=61-	=61-	=61-	=61-	=61-	=61-	=61-
!	!	!	!	!	!	!	!	!LO:TX:t=P:problem=kreska pseudotaktowa	!	!LO:TX:t=P:problem=kreska pseudotaktowa	!	!LO:TX:t=P:problem=kreska pseudotaktowa	!	!	!
2G\	-nem	1.G	-nem	2B-\	-nem	2d\	-nem	1.d	-nem	1.g	-nem	1.b-	-nem	1.b-	-nem
2B-\	Paſ-	.	.	2B-\	Paſ-	2d\	Paſ-	.	.	.	.	.	.	.	.
2G\	-ſi-	.	.	2B-\	-ſi-	2d\	-ſi-	.	.	.	.	.	.	.	.
!LO:LB:g=original	!	!	!	!	!	!LO:LB:g=original	!	!	!	!	!	!	!	!	!
=62-	=62-	=62-	=62-	=62-	=62-	=62-	=62-	=62-	=62-	=62-	=62-	=62-	=62-	=62-	=62-
1.c#X	-o-	2G\	Paſ-	1.A	-o-	(>2B-\	-o-	2g\	Paſ-	1a	Paſ-	1.ryy	.	1een	Paſ-
.	.	2E-X\	.	.	.	2A\	.	2a\	.	.	.	.	.	.	.
!	!	!	!	!	!	!	!	!	!	!LO:TX:t=P:problem=kreska pseudotaktowa	!	!	!	!LO:TX:t=P:problem=kreska pseudotaktowa	!
.	.	2C/	-ſi-	.	.	2B-,\)	.	2g\	-ſi-	2a\	-ſi-	.	.	2ee\	-ſi-
=63-	=63-	=63-	=63-	=63-	=63-	=63-	=63-	=63-	=63-	=63-	=63-	=63-	=63-	=63-	=63-
1d	.	2D\	-o-	2A\	-nem	1c	.	1a	-o-	2a\	-o-	2r	.	1ff#X	-o-
.	.	2c\	.	2d\	Paſ-	.	.	.	.	2f#X\	.	2cc\	Paſ-	.	.
!	!	!	!	!	!	!	!	!LO:TX:t=P:problem=kreska pseudotaktowa	!	!LO:TX:t=P:problem=kreska pseudotaktowa	!	!	!	!	!
2G\	.	2B-\	.	2d\	-ſi-	2B-\	.	[>2g\	.	2d\	.	2b-\	-ſi-	2gg\	.
=64-	=64-	=64-	=64-	=64-	=64-	=64-	=64-	=64-	=64-	=64-	=64-	=64-	=64-	=64-	=64-
!	!	!	!	!	!	!	!	!	!	!LO:TX:t=P:problem=kreska pseudotaktowa	!	!	!	!	!
2C/	.	2c\	.	2c\	-o-	2c\	.	2g\]	.	1.a	.	(>2cc\	-o-	2ee-X\	.
1D	.	2d\	.	1d	.	1d	.	2g\	.	.	.	2b-\)	.	2dd\	.
*	*	*	*	*	*	*	*	*	*	*	*	*	*	*custos:d	*
!	!	!	!	!	!	!	!	!LO:TX:t=P:problem=kreska pseudotaktowa	!	!	!	!	!	!LO:TX:t=P:problem=kreska pseudotaktowa	!
.	.	2D/	.	.	.	.	.	2f#X\	.	.	.	2f#X/	.	2a\	.
!	!	!	!	!	!	!	!	!	!	!	!	!	!	!LO:LB:g=original	!
=65-	=65-	=65-	=65-	=65-	=65-	=65-	=65-	=65-	=65-	=65-	=65-	=65-	=65-	=65-	=65-
!LO:TX:t=P:problem=kreska pseudotaktowa	!	!LO:TX:t=P:problem=kreska pseudotaktowa	!	!LO:TX:t=P:problem=kreska pseudotaktowa	!	!LO:TX:t=P:problem=kreska pseudotaktowa	!	!LO:TX:t=P:problem=kreska pseudotaktowa	!	!LO:TX:t=P:problem=kreska pseudotaktowa	!	!LO:TX:t=P:problem=kreska pseudotaktowa	!	!LO:TX:t=P:problem=kreska pseudotaktowa	!
1.GG	-nem	1.G	-nem	1.d	-nem	1.d	-nem	1.g	-nem	1.b-X	-nem	1.g	-nem	1.b-	-nem
!	!	!	!	!	!	!	!	!	!	!	!	!LO:LB:g=original	!	!	!
=66-	=66-	=66-	=66-	=66-	=66-	=66-	=66-	=66-	=66-	=66-	=66-	=66-	=66-	=66-	=66-
*M2/1	*	*M2/1	*	*M2/1	*	*M2/1	*	*M2/1	*	*M2/1	*	*M2/1	*	*M2/1	*
*met(C)	*	*met(C)	*	*met(C)	*	*met(C)	*	*met(C)	*	*met(C)	*	*met(C)	*	*met(C)	*
!LO:TX:i:a:t=adagio.	!	!LO:TX:i:a:t=adagio	!	!LO:TX:i:a:t=adagio	!	!LO:TX:i:a:t=adagio	!	!LO:TX:i:a:t=adagio.	!	!LO:TX:i:a:t=adagio	!	!LO:TX:i:a:t=adagio	!	!LO:TX:i:a:t=adagio	!
2G\	Qui	2G\	Qui	2d\	Qui	2d\	Qui	2g\	Qui	2g\	Qui	2b-\	Qui	2b-\	Qui
!	!	!	!	!	!	!	!	!	!	!LO:TX:t=P:problem=kreska pseudotaktowa	!	!	!	!	!
2F\	paſ-	2Fny\	paſ-	2d\	Paſ-	2d\	paſ-	2fny\	Paſ-	2a-X\	Paſ-	2bn,\	paſ-	2bn\	paſ-
!	!	!	!	!	!	!	!	!	!	!LO:TX:t=P:problem=kreska pseudotaktowa	!	!	!	!LO:TX:t=P:problem=kreska pseudotaktowa	!
1E-X	-ſus	1E-X	-ſus	1e-X	-ſus	1c	-[ſ]us	1g	-ſus	1g	-ſus	1cc,	-ſus	1cc	-ſus
!	!	!LO:LB:g=original	!	!	!	!	!	!	!	!	!	!	!	!	!
=67-	=67-	=67-	=67-	=67-	=67-	=67-	=67-	=67-	=67-	=67-	=67-	=67-	=67-	=67-	=67-
4D/	es	4D/	es	4d\	es	4c\	es	4f#X\	es	4an\	es	4cc\	es	4cc\	es
4D/	pro	4D/	pro	4d\	pro	4c\	pro	4f#\	pro	4a\	pro	4cc\	pro	4cc\	pro
!	!	!	!	!	!	!	!	!	!	!LO:TX:t=P:problem=kreska pseudotaktowa	!	!	!	!	!
2D/	no-	2d\	no-	2c\	no-	2d\	no-	2f#\	no-	2a\	no-	2dd\	no-	2cc\	no-
!	!	!	!	!LO:LB:g=original	!	!	!	!	!	!	!	!	!	!	!
!	!	!	!	!	!	!	!	!	!	!LO:TX:t=P:problem=kreska pseudotaktowa	!	!	!	!LO:TX:t=P:problem=kreska pseudotaktowa	!
1G	-bis	1G	-bis	1B-	-bis	1d	-bis	1d	-bis	1g	-bis	1dd,	-bis	1b-y	-bis
=68-	=68-	=68-	=68-	=68-	=68-	=68-	=68-	=68-	=68-	=68-	=68-	=68-	=68-	=68-	=68-
4G\	es	4G\	es	4d\	es	4d\	es	4g\	es	4g\	es	4b-y\	es	4b-\	es
4G\	pro	4G\	pro-	4d\	pro	4d\	pro	4g\	pro	4g\	pro	4b-\	pro-	4b-\	pro
!	!	!	!	!	!	!	!	!	!	!LO:TX:t=P:problem=kreska pseudotaktowa	!	!LO:TX:t=P:problem=kreska pseudotaktowa	!	!	!
2C#X/	no-	2C#X/	-no-	2B-\	no-	2en\	no-	(>4a\	.	2g\	no-	2a\	-no-	2b-\	no-
.	.	.	.	.	.	.	.	4g\)	no-	.	.	.	.	.	.
!	!	!	!	!	!	!	!	!LO:TX:t=P:problem=kreska pseudotaktowa	!	!	!	!	!	!	!
0D;<	-bis	0D;<	-bis	0A;<	-bis	0d;<	-bis	0f#X;<	-bis	0f#X;<	-bis	0a;<	-bis	0a;<	-bis.
=69-	=69-	=69-	=69-	=69-	=69-	=69-	=69-	=69-	=69-	=69-	=69-	=69-	=69-	=69-	=69-
.	.	.	.	.	.	.	.	.	.	.	.	.	.	.	.
!	!	!	!	!	!	!	!	!LO:LB:g=original	!	!	!	!	!	!	!
=-	=-	=-	=-	=-	=-	=-	=-	=-	=-	=-	=-	=-	=-	=-	=-
*M2/1	*	*M2/1	*	*M2/1	*	*M2/1	*	*M2/1	*	*M2/1	*	*M2/1	*	*M2/1	*
*met(C|)	*	*met(C|)	*	*met(C|)	*	*met(C|)	*	*met(C|)	*	*met(C|)	*	*met(C|)	*	*met(C|)	*
!LO:TX:b:t=2	!	!LO:TX:b:t=5	!	!LO:TX:b:t=8	!	!LO:TX:b:t=3	!	!LO:TX:b:t=3	!	!LO:TX:i:a:t=Lento	!	!LO:TX:b:t=2	!	!	!
!LO:TX:i:a:t=Lento	!	!LO:TX:i:a:t=Lento	!	!LO:TX:i:a:t=Lento	!	!LO:TX:a:i:t=Lento	!	!LO:TX:i:a:t=Lento	!	!LO:TX:b:t=i	!	!LO:TX:i:a:t=Lento.	!	!LO:TX:i:a:t=Lento.	!
!LO:TX:t=P:problem=kreska pseudotaktowa	!	!	!	!	!	!	!	!	!	!LO:TX:t=P:problem=kreska pseudotaktowa	!	!LO:TX:t=P:problem=kreska pseudotaktowa	!	!	!
!LO:N:vis=0	!	!LO:N:vis=00	!	!LO:N:vis=00	!	!LO:N:vis=0	!	!LO:N:vis=0	!	!	!	!LO:N:vis=0	!	!	!
0r	.	00r	.	00r	.	0r	.	0r	.	1r	.	0r	.	2dd\	-Je-
.	.	.	.	.	.	.	.	.	.	.	.	.	.	2dd,\	-su
=70-	=70-	=70-	=70-	=70-	=70-	=70-	=70-	=70-	=70-	=70-	=70-	=70-	=70-	=70-	=70-
*	*	*	*	*	*	*	*	*	*	*	*	*	*	*	*ij
.	.	.	.	.	.	.	.	.	.	2g\	Je-	.	.	2b-\	Je-
.	.	.	.	.	.	.	.	.	.	2g\	-su	.	.	2g,\	-su
*	*	*	*	*	*	*	*	*	*	*	*	*	*	*	*Xij
!	!	!	!	!	!	!	!	!	!	!LO:LB:g=original	!	!	!	!	!
!	!	!	!	!	!	!LO:TX:t=P:problem=kreska pseudotaktowa	!	!LO:TX:t=P:problem=kreska pseudotaktowa	!	!	!	!	!	!	!
2d\	Je-	.	.	.	.	1r	.	1r	.	2f#X\	Je-	2dd\	Je-	1a,	X.-
2d\	-su	.	.	.	.	.	.	.	.	2d\	-su	2dd\	-su	.	.
=71-	=71-	=71-	=71-	=71-	=71-	=71-	=71-	=71-	=71-	=71-	=71-	=71-	=71-	=71-	=71-
2B-\	Je-	.	.	.	.	2d\	Je-	2g\	Je-	4g\	X-	2b-\	Je-	2b-\	-ste
.	.	.	.	.	.	.	.	.	.	4a\	.	.	.	.	.
2G\	-su	.	.	.	.	2d\	-su	2g\	-su	2b-\	.	2g\	-su	2r,	.
!	!	!LO:TX:t=P:problem=kreska pseudotaktowa	!	!LO:TX:t=P:problem=kreska pseudotaktowa	!	!	!	!	!	!	!	!	!	!	!
!	!	!	!	!LO:N:vis=00	!	!	!	!	!	!	!	!	!	!	!
1A	X.-	1r	.	00r	.	2c\	X-	2cc\	X-	2en\	.	1a	X.-	1cc	X.-
.	.	.	.	.	.	2A\	-ste	2dd\	.	2f#X\	.	.	.	.	.
=72-	=72-	=72-	=72-	=72-	=72-	=72-	=72-	=72-	=72-	=72-	=72-	=72-	=72-	=72-	=72-
!	!	!	!	!	!	!	!	!LO:TX:t=P:problem=kreska pseudotaktowa	!	!	!	!	!	!	!
2G\	-ste	2G\	Je-	.	.	2d\	mi-	1b-	-ste	2g\	-ste	2g\	-ste	2b-\	-ste
!	!	!	!	!	!	!	!	!	!	!LO:TX:t=P:problem=kreska pseudotaktowa	!	!	!	!LO:TX:t=P:problem=kreska pseudotaktowa	!
2r	.	2G\	-su	.	.	2B-\	-se-	.	.	2r	.	2b-\	mi-	2r	.
!LO:LB:g=original	!	!	!	!	!	!	!	!	!	!	!	!	!	!	!
!	!	!	!	!	!	!	!	!LO:TX:b:t=5	!	!LO:TX:b:t=2	!	!	!	!	!
!	!	!	!	!	!	!	!	!	!	!LO:TX:t=P:problem=kreska pseudotaktowa	!	!	!	!	!
!	!	!	!	!	!	!	!	!LO:N:vis=00	!	!LO:N:vis=0	!	!	!	!	!
2F\	mi-	2F\	Je-	.	.	2A\	-re-	00r	.	0r	.	2.a\	-se-	2a\	mi-
2F\	-se-	2D\	-su	.	.	[>2d\	-re	.	.	.	.	.	.	2a\	-se-
.	.	.	.	.	.	.	.	.	.	.	.	4b-\	.	.	.
=73-	=73-	=73-	=73-	=73-	=73-	=73-	=73-	=73-	=73-	=73-	=73-	=73-	=73-	=73-	=73-
1E-	-re-	1E-XM>	X-	.	.	2d\]	.	.	.	.	.	1a	-re-	1g	-re-
.	.	.	.	.	.	2c\	no-	.	.	.	.	.	.	.	.
!	!	!	!	!	!	!	!	!	!	!	!	!	!	!LO:LB:g=original	!
2D\	-re	2D\	-ste	2d\	Je-	2d\	-bis	.	.	2a\	Je-	2f#X/	-re	2a\	-re
!	!	!LO:TX:t=P:problem=kreska pseudotaktowa	!	!	!	!	!	!	!	!	!	!LO:TX:t=P:problem=kreska pseudotaktowa	!	!	!
2d\	mi-	2r	.	2d\	-su	2r	.	.	.	2a\	-su	2r	.	2dd\	mi-
!	!	!	!	!	!	!LO:LB:g=original	!	!	!	!	!	!	!	!	!
=74-	=74-	=74-	=74-	=74-	=74-	=74-	=74-	=74-	=74-	=74-	=74-	=74-	=74-	=74-	=74-
!	!	!LO:TX:b:t=2	!	!	!	!	!	!	!	!	!	!	!	!	!
!	!	!LO:TX:t=P:problem=kreska pseudotaktowa	!	!	!	!	!	!	!	!	!	!	!	!	!
!	!	!LO:N:vis=0	!	!	!	!	!	!	!	!	!	!	!	!	!
2B-\	.	0r	.	2B-\	Je-	2d\	mi-	.	.	1b-	mi-	2dd\	Je-	2dd\	.
2G\	-se-	.	.	2G/	-su	2d\	-se-	.	.	.	.	2dd\	-su	2gg\	-se-
!	!	!	!	!	!	!	!	!LO:TX:t=P:problem=kreska pseudotaktowa	!	!	!	!	!	!	!
1A	-re-	.	.	1A	X.-	1d	-re-	1r	.	2cc\	.	1cc	X.-	2gg\	-re-
.	.	.	.	.	.	.	.	.	.	2a\	-se-	.	.	2ff#X\	.
!	!	!	!	!	!	!	!	!	!	!	!	!LO:LB:g=original	!	!	!
=75-	=75-	=75-	=75-	=75-	=75-	=75-	=75-	=75-	=75-	=75-	=75-	=75-	=75-	=75-	=75-
2G\	-re	2G\	mi-	2B-\	-ste	2d\	-re	2g\	mi-	1g	-re-	2b-\	-ste	2gg\	-re
!LO:TX:t=P:problem=kreska pseudotaktowa	!	!	!	!	!	!	!	!	!	!	!	!	!	!	!
2r	.	2G\	-se-	2B-\	mi-	2r	.	2g\	-se-	.	.	2dd\	mi-	4dd\	mi-
.	.	.	.	.	.	.	.	.	.	.	.	.	.	4dd\	-se-
2cny\	mi-	2E-\	-re-	1c	-se-	2e-X\	mi-	4cc\	-re-	2a\	.	(>2cc\	-se-	2.ee-\	-re-
.	.	.	.	.	.	.	.	4b-\	.	.	.	.	.	.	.
2c\	-se-	2G\	-re	.	.	2e-\	-se-	4a\	.	2fny\	-re	2b-\)	.	.	.
.	.	.	.	.	.	.	.	4g\	.	.	.	.	.	4dd\	-re
=76-	=76-	=76-	=76-	=76-	=76-	=76-	=76-	=76-	=76-	=76-	=76-	=76-	=76-	=76-	=76-
!	!	!	!	!	!	!	!	!	!	!LO:TX:t=P:problem=kreska pseudotaktowa	!	!	!	!	!
2F\	-re-	(>2F\	no-	2c\	-re-	2e-\	-re-	2a\	.	0f	no-	2a\	-re-	2cc\	no-
2B-\	-re	2B-\)	.	2B-\	-re	2d\	-re	2b-\	-re	.	.	(>4b-\	-re	1dd\	.
.	.	.	.	.	.	.	.	.	.	.	.	4cc\)	.	.	.
!	!	!LO:TX:t=P:problem=kreska pseudotaktowa	!	!	!	!	!	!	!	!	!	!	!	!	!
1F	no-	1F	-bis	1c	no-	(>2c\	no-	1fny	no-	.	.	(>2b-\	no-	.	.
!	!	!	!	!	!	!	!	!	!	!	!	!LO:TX:t=P:problem=kreska pseudotaktowa	!	!LO:TX:t=P:problem=kreska pseudotaktowa	!
.	.	.	.	.	.	2e-X\)	.	.	.	.	.	2a\)	.	2cc\	.
=77-	=77-	=77-	=77-	=77-	=77-	=77-	=77-	=77-	=77-	=77-	=77-	=77-	=77-	=77-	=77-
!	!	!	!	!	!	!	!	!LO:TX:t=P:problem=kreska pseudotaktowa	!	!LO:TX:t=P:problem=kreska pseudotaktowa	!	!	!	!LO:TX:t=P:problem=kreska pseudotaktowa	!
2BB-/	-[bis]	2B-\	Je-	2B-\	-bis	2d\	-bis	1d	-bis	2f\	-bis	2b-\	-bis	1b-	-bis
!LO:TX:t=P:problem=kreska pseudotaktowa	!	!	!	!LO:TX:t=P:problem=kreska pseudotaktowa	!	!LO:TX:t=P:problem=kreska pseudotaktowa	!	!	!	!	!	!LO:TX:t=P:problem=kreska pseudotaktowa	!	!	!
2r	.	2B-\	-su	2r	.	2r	.	.	.	2r	.	2r	.	.	.
!LO:TX:b:t=3	!	!	!	!	!	!LO:TX:b:t=6	!	!LO:TX:b:t=2	!	!LO:TX:b:t=i	!	!LO:TX:b:t=2	!	!LO:TX:b:t=2	!
!LO:N:vis=0	!	!	!	!	!	!	!	!LO:TX:t=P:problem=kreska pseudotaktowa	!	!LO:TX:t=P:problem=kreska pseudotaktowa	!	!LO:TX:t=P:problem=kreska pseudotaktowa	!	!LO:TX:t=P:problem=kreska pseudotaktowa	!
!	!	!	!	!	!	!LO:N:vis=00	!	!LO:N:vis=0	!	!	!	!LO:N:vis=0	!	!LO:N:vis=0	!
0r	.	2A\	Je-	2f\	Je-	00r	.	0r	.	1r	.	0r	.	0r	.
.	.	2F\	-su	2f\	-su	.	.	.	.	.	.	.	.	.	.
=78-	=78-	=78-	=78-	=78-	=78-	=78-	=78-	=78-	=78-	=78-	=78-	=78-	=78-	=78-	=78-
.	.	1B-	X-	2d\	Je-	.	.	.	.	2b-\	Je-	.	.	.	.
.	.	.	.	2B-\	-su	.	.	.	.	2b-\	-su	.	.	.	.
!LO:TX:t=P:problem=kreska pseudotaktowa	!	!	!	!	!	!	!	!	!	!	!	!	!	!	!
1r	.	1F	-ste	1c	X.-	.	.	2a\	Je-	1a	X.-	2cc\	Je-	2ffny\	Je-
.	.	.	.	.	.	.	.	2a\	-su	.	.	2cc\	-su	2ff\	-su
!	!	!LO:LB:g=original	!	!	!	!	!	!	!	!	!	!	!	!	!
=79-	=79-	=79-	=79-	=79-	=79-	=79-	=79-	=79-	=79-	=79-	=79-	=79-	=79-	=79-	=79-
2B-\	Je-	4B-\	mi-	2d\	-ste	.	.	1b-	Je-	2f\	-ste	4dd\	X-	2dd\	Je-
.	.	4A\	-se-	.	.	.	.	.	.	.	.	4cc\	-ste	.	.
!	!	!	!	!	!	!	!	!	!	!LO:TX:t=P:problem=kreska pseudotaktowa	!	!	!	!	!
2B-\	-su	4B-\	-re-	2r	.	.	.	.	.	2r	.	4dd\	mi-	2b-\	-su
.	.	4G\	-re	.	.	.	.	.	.	.	.	4een\	-se-	.	.
!	!	!	!	!	!	!	!	!	!	!LO:TX:b:t=2	!	!	!	!	!
!	!	!	!	!	!	!LO:TX:t=P:problem=kreska pseudotaktowa	!	!	!	!LO:TX:t=P:problem=kreska pseudotaktowa	!	!	!	!	!
!	!	!	!	!	!	!LO:N:vis=0	!	!	!	!LO:N:vis=0	!	!	!	!	!
2A\	Je-	1A	no-	4c\	mi-	0r	.	2cc\	.	0r	.	2ff\	-re-	2cc\	X.-
.	.	.	.	4B-\	-se-	.	.	.	.	.	.	.	.	.	.
2F\	-su	.	.	4c\	-re-	.	.	2a\	-su	.	.	2cc\	-re	1ff\	.
.	.	.	.	4A\	-re	.	.	.	.	.	.	.	.	.	.
!	!	!	!	!LO:LB:g=original	!	!	!	!	!	!	!	!	!	!	!
=80-	=80-	=80-	=80-	=80-	=80-	=80-	=80-	=80-	=80-	=80-	=80-	=80-	=80-	=80-	=80-
1G	X-	1G	.	1B-	no-	.	.	1b-	X-	.	.	2b-\	no-	.	.
.	.	.	.	.	.	.	.	.	.	.	.	(>4cc\	.	2een\	.
.	.	.	.	.	.	.	.	.	.	.	.	4b-\)	.	.	.
!	!	!	!	!LO:TX:t=P:problem=kreska pseudotaktowa	!	!	!	!	!	!	!	!	!	!	!
2F\	-ste	2F\	-bis	1A\	-bis	2f\	Je-	2a\	-ste	2e-X\	mi-	2a\	-bis	2ff\	-ste
!	!	!LO:TX:t=P:problem=kreska pseudotaktowa	!	!	!	!	!	!LO:TX:t=P:problem=kreska pseudotaktowa	!	!	!	!LO:TX:t=P:problem=kreska pseudotaktowa	!	!	!
4A\	mi-	2r	.	.	.	2f\	-su	2r	.	(>4f\	-se-	2r	.	2cc\	mi-
4F\	-se-	.	.	.	.	.	.	.	.	4e-\)	.	.	.	.	.
=81-	=81-	=81-	=81-	=81-	=81-	=81-	=81-	=81-	=81-	=81-	=81-	=81-	=81-	=81-	=81-
!	!	!	!	!LO:TX:b:t=i	!	!	!	!LO:TX:b:t=i	!	!	!	!	!	!	!
!	!	!	!	!LO:TX:t=P:problem=kreska pseudotaktowa	!	!	!	!LO:TX:t=P:problem=kreska pseudotaktowa	!	!	!	!	!	!	!
2B-\	-re-	4B-\	mi-	1r	.	2f\	Je-	1r	.	4d/	-re-	(>4b-\	Je-	2dd\	.
.	.	4F\	-se-	.	.	.	.	.	.	4c/	.	4cc\)	-su	.	.
2B-\	-re	4D/	-re-	.	.	4d\	-su	.	.	2B-/	-re	2dd\	.	4cc\	-se-
.	.	4BB-/	-re	.	.	4B-\	.	.	.	.	.	.	.	4dd\	.
!	!	!	!	!	!	!	!	!	!	!LO:PB:g=original	!	!	!	!	!
1F	no-	1F	no-	2c\	Je-	1f	X-	1a	Je-	2g\	no-	1cc	X-	1ee-y	-re-
.	.	.	.	2c\	-su	.	.	.	.	2a\	.	.	.	.	.
=82-	=82-	=82-	=82-	=82-	=82-	=82-	=82-	=82-	=82-	=82-	=82-	=82-	=82-	=82-	=82-
2BB-/	-bis	2BB-/	-bis	2d\	Je-	2d\	-ste	2f\	-su	2b-\	-bis	1dd	-ste	2dd\	-re
!	!	!LO:TX:t=P:problem=kreska pseudotaktowa	!	!	!	!LO:TX:t=P:problem=kreska pseudotaktowa	!	!	!	!	!	!	!	!LO:TX:t=P:problem=kreska pseudotaktowa	!
2B-\	[mi-	2r	.	2d\	-su	2r	.	4d\	Je-	1b-\	no-	.	.	2r	.
.	.	.	.	.	.	.	.	4e-\	-su	.	.	.	.	.	.
1F	-se]-	1F	Je-	1c	X-	1c	Je-	1f	X-	.	.	1ee-X	X.-	2r	.
!	!	!	!	!	!	!	!	!	!	!LO:TX:t=P:problem=kreska pseudotaktowa	!	!	!	!LO:TX:t=P:problem=kreska pseudotaktowa	!
.	.	.	.	.	.	.	.	.	.	2a\	.	.	.	2cc\	mi-
!LO:PB:g=original	!	!	!	!	!	!	!	!	!	!	!	!	!	!LO:PB:g=original	!
=83-	=83-	=83-	=83-	=83-	=83-	=83-	=83-	=83-	=83-	=83-	=83-	=83-	=83-	=83-	=83-
2BB-/	re-	1B-	-su	2B-\	-ste	1d	-su	2f\	-ste	2f\	-bis	2dd\	-ste	2.dd\	.
!	!	!	!	!LO:TX:t=P:problem=kreska pseudotaktowa	!	!	!	!LO:TX:t=P:problem=kreska pseudotaktowa	!	!LO:TX:t=P:problem=kreska pseudotaktowa	!	!	!	!	!
4B-\	.	.	.	2r	.	.	.	2r	.	2r	.	2r	.	.	.
!	!	!	!	!	!	!	!	!	!	!	!	!	!	!LO:TX:t=P:problem=kreska pseudotaktowa	!
4A\	.	.	.	.	.	.	.	.	.	.	.	.	.	4cc\	-se-
!	!	!	!	!	!	!	!	!LO:LB:g=original	!	!	!	!LO:PB:g=original	!	!	!
4G\	.	1G	X-	1B-	mi-	2B-\	X-	2r	.	2r	.	2r	.	4b-\	-re-
4F\	.	.	.	.	.	.	.	.	.	.	.	.	.	4a\	.
!	!	!	!	!	!	!	!	!	!	!LO:TX:t=P:problem=kreska pseudotaktowa	!	!LO:TX:t=P:problem=kreska pseudotaktowa	!	!	!
4En\	re	.	.	.	.	2d\	-ste	2b-\	mi-	2g\	mi-	[>2b-\	mi-	4g\	.
!	!	!	!	!	!	!	!	!	!	!	!	!	!	!LO:TX:t=P:problem=kreska pseudotaktowa	!
4D\	.	.	.	.	.	.	.	.	.	.	.	.	.	4f\	.
=84-	=84-	=84-	=84-	=84-	=84-	=84-	=84-	=84-	=84-	=84-	=84-	=84-	=84-	=84-	=84-
(<2Cny/	no-	1Cny	-ste	1c	-se-	2c\	mi-	2g\	.	2e-\	.	2b-\]	.	(>2g\	.
2F\)	.	.	.	.	.	4A\	-se-	2f\	-se-	1f\	.	2a\	-se-	2a\)	.
.	.	.	.	.	.	4B-\	.	.	.	.	.	.	.	.	.
!	!	!	!	!	!	!LO:TX:t=P:problem=kreska pseudotaktowa	!	!	!	!	!	!	!	!	!
1C	.	2c\	mi-	1c	-re-	1c	-re-	1g	-re-	.	.	1g	-re-	2g\	-re
.	.	2C/	-se-	.	.	.	.	.	.	2en\	-se-	.	.	(>4cc\	no-
.	.	.	.	.	.	.	.	.	.	.	.	.	.	4b-\)	.
=85-	=85-	=85-	=85-	=85-	=85-	=85-	=85-	=85-	=85-	=85-	=85-	=85-	=85-	=85-	=85-
2D\	-bis	1D	-re-	1d	-re	2d\	-re	2a\	-re	2f#X\	-re-	2a\	.	(>2a\	.
2G\	no-	.	.	.	.	4B-\	.	2g\	no-	1g\	.	2g\	.	2b-\)	.
.	.	.	.	.	.	4c\	.	.	.	.	.	.	.	.	.
!	!	!	!	!	!	!	!	!	!	!	!	!LO:TX:t=P:problem=kreska pseudotaktowa	!	!	!
1D	.	2d\	.	1A	no-	1d	no-	2g\	.	.	.	1a	-re	2a\	-bis
.	.	2D/	-re	.	.	.	.	2a\	.	2f#y\	-re	.	.	2dd\	mi-
=86-	=86-	=86-	=86-	=86-	=86-	=86-	=86-	=86-	=86-	=86-	=86-	=86-	=86-	=86-	=86-
1E-X	.	1E-X	no-	2G/	-bis	2d\	-bis	1g	.	4e-X\	mi-	4g/	mi-	2g\	.
.	.	.	.	.	.	.	.	.	.	4d\	-se-	4fny/	-se-	.	.
!	!	!	!	!LO:TX:t=P:problem=kreska pseudotaktowa	!	!	!	!	!	!	!	!	!	!	!
.	.	.	.	2r	.	2c\	mi-	.	.	4e-\	-re-	4g/	-re-	2cc\	-se-
.	.	.	.	.	.	.	.	.	.	4c\	-re	4a/	-re	.	.
!	!	!	!	!	!	!LO:LB:g=original	!	!	!	!	!	!	!	!	!
!	!	!	!	!LO:TX:t=P:problem=kreska pseudotaktowa	!	!	!	!	!	!	!	!	!	!	!
!	!	!	!	!LO:TX:b:t=i	!	!	!	!	!	!	!	!	!	!	!
1D	.	2D\	-bis	1r	.	2c\	.	2f\	-bis	1f#y	no-	1b-	no-	2f/	-re-
!	!	!	!	!	!	!	!	!LO:TX:t=P:problem=kreska pseudotaktowa	!	!	!	!	!	!	!
.	.	2d\	no-	.	.	2B-\	-se-	2r	.	.	.	.	.	2b-\	-re
=87-	=87-	=87-	=87-	=87-	=87-	=87-	=87-	=87-	=87-	=87-	=87-	=87-	=87-	=87-	=87-
!	!	!	!	!	!	!	!	!LO:TX:b:t=i	!	!	!	!	!	!	!
!	!	!	!	!	!	!	!	!LO:TX:t=P:problem=kreska pseudotaktowa	!	!	!	!	!	!	!
1c	.	1c	.	1c	no-	2B-\	-re-	1r	.	4g\	.	2cc\	.	1ee-X	no-
.	.	.	.	.	.	.	.	.	.	4f#y\	.	.	.	.	.
.	.	.	.	.	.	2A\	-re	.	.	4g\	.	2a\	.	.	.
.	.	.	.	.	.	.	.	.	.	4a\	.	.	.	.	.
2B-\	-bis	2B-\	-bis	2B-\	-bis	4B-\	no-	1g	no-	2b-\	-bis	2dd\	-bis	1dd	-bis
.	.	.	.	.	.	4c\	.	.	.	.	.	.	.	.	.
!	!	!LO:TX:t=P:problem=kreska pseudotaktowa	!	!LO:TX:t=P:problem=kreska pseudotaktowa	!	!	!	!	!	!LO:TX:t=P:problem=kreska pseudotaktowa	!	!	!	!	!
2B-\	no-	2r	.	2r	.	2d\	.	.	.	2r	.	2g\	no-	.	.
=88-	=88-	=88-	=88-	=88-	=88-	=88-	=88-	=88-	=88-	=88-	=88-	=88-	=88-	=88-	=88-
!	!	!	!	!LO:TX:a:t=P:problem=tekst niewidoczny	!	!	!	!	!	!	!	!	!	!	!
1A	.	1A	mi-	2c\	[mi-	1c	-bis	4en\	.	2g\	mi-	2cc\	.	1cc	mi-
.	.	.	.	.	.	.	.	4d\	.	.	.	.	.	.	.
.	.	.	.	2A\	-se-	.	.	4e\	.	2f#X\	-se-	4dd\	.	.	.
.	.	.	.	.	.	.	.	4f#X\	.	.	.	4cc\	.	.	.
2G\	-bis	1G	-se-	1B-	-re-	1d	no-	1g	-bis	2g\	-re-	2b-\	-bis	1b-	-se-
!	!	!	!	!	!	!	!	!	!	!	!	!LO:TX:t=P:problem=kreska pseudotaktowa	!	!	!
4G\	mi-	.	.	.	.	.	.	.	.	4a\	-re	2r	.	.	.
4F\	-se-	.	.	.	.	.	.	.	.	4b-\	.	.	.	.	.
!	!	!LO:PB:g=original	!	!	!	!	!	!	!	!	!	!	!	!	!
=89-	=89-	=89-	=89-	=89-	=89-	=89-	=89-	=89-	=89-	=89-	=89-	=89-	=89-	=89-	=89-
!	!	!	!	!LO:N:vis=1	!	!	!	!	!	!	!	!	!	!LO:TX:t=P:problem=kreska pseudotaktowa	!
4E-X/	-re-	1c	-re-	2A\	-re	1e-X	.	1a	mi-	2cc\	no-	2a\	mi-	[>1cc	-re-
4D/	.	.	.	.	.	.	.	.	.	.	.	.	.	.	.
2C/	-re	.	.	1d\	no-	.	.	.	.	[>2a\	.	2g\	-se-	.	.
(>2D\	no-	2d\	.	.	.	2d\	-bis	2f#X\	-se-	2a\]	.	2a\	-re-	2cc\]	.
2G\)	.	2G\	-re	2d\	-bis]	2e-X\	no-	[<2g\	-re-	[>2g\	.	4b-\	-re	2b-\	-re
.	.	.	.	.	.	.	.	.	.	.	.	4cc\	.	.	.
=90-	=90-	=90-	=90-	=90-	=90-	=90-	=90-	=90-	=90-	=90-	=90-	=90-	=90-	=90-	=90-
!	!	!	!	!LO:TX:t=P:problem=kreska pseudotaktowa	!	!	!	!	!	!	!	!	!	!	!
2d\	.	1D	no-	1r	.	1d	.	2g\]	.	2g\]	.	(>2b-\	no-	1a	no-
2D/	.	.	.	.	.	.	.	2a\	-re	2f#X\	.	2a\)	.	.	.
!	!	!	!	!LO:PB:g=original	!	!	!	!	!	!LO:LB:g=original	!	!	!	!	!
2GG/	-bis	1G	-bis	1d	mi-	2d\	-bis	1g	no-	1g	-bis	1b-	-bis	1g	-bis
2r	.	.	.	.	.	2r	.	.	.	.	.	.	.	.	.
=91-	=91-	=91-	=91-	=91-	=91-	=91-	=91-	=91-	=91-	=91-	=91-	=91-	=91-	=91-	=91-
2E-X/	mi-	1E-	mi-	1d	-se-	2d\	mi-	2g\	.	1g	no-	2b-\	mi-	2b-\	mi-
2D/	-se-	.	.	.	.	2d\	-se-	2f#X\	-bis	.	.	2b-\	-se-	2b-\	-se-
!	!	!	!	!	!	!	!	!	!	!	!	!	!	!LO:TX:t=P:problem=kreska pseudotaktowa	!
0C#X	-re-	0C#X	-se-	[>1B-	-re-	[<1en	-re-	1g	no-	1a	.	0b-	-re-	0een	-re-
=92-	=92-	=92-	=92-	=92-	=92-	=92-	=92-	=92-	=92-	=92-	=92-	=92-	=92-	=92-	=92-
!	!	!	!	!	!	!	!	!	!	!LO:TX:t=P:problem=kreska pseudotaktowa	!	!	!	!	!
.	.	.	.	1B-]	.	1en]	.	2a\	.	1a	.	.	.	.	.
.	.	.	.	.	.	.	.	2g\	.	.	.	.	.	.	.
!LO:LB:g=original	!	!	!	!	!	!	!	!	!	!	!	!LO:LB:g=original	!	!LO:LB:g=original	!
[<1D	-re	0D	-re-	2A\	-re	2d\	-re	2f#X\	-bis	2g\	-bis	2a\	-re	2dd\	-re
!	!	!	!	!LO:TX:t=P:problem=kreska pseudotaktowa	!	!LO:TX:t=P:problem=kreska pseudotaktowa	!	!LO:TX:t=P:problem=kreska pseudotaktowa	!	!LO:TX:t=P:problem=kreska pseudotaktowa	!	!	!	!	!
.	.	.	.	2r	.	2r	.	2r	.	2r	.	2b-\	no-	2dd\	no-
=93-	=93-	=93-	=93-	=93-	=93-	=93-	=93-	=93-	=93-	=93-	=93-	=93-	=93-	=93-	=93-
!	!	!	!	!LO:TX:b:t=2	!	!LO:TX:b:t=i	!	!LO:TX:b:t=2	!	!LO:TX:b:t=i	!	!	!	!	!
!	!	!	!	!LO:TX:t=P:problem=kreska pseudotaktowa	!	!LO:TX:t=P:problem=kreska pseudotaktowa	!	!LO:TX:t=P:problem=kreska pseudotaktowa	!	!LO:TX:t=P:problem=kreska pseudotaktowa	!	!	!	!	!
!	!	!	!	!LO:N:vis=0	!	!	!	!LO:N:vis=0	!	!	!	!	!	!	!
1D_<	.	.	.	0r	.	1r	.	0r	.	1r	.	(>2a\	.	(>2cc\	.
.	.	.	.	.	.	.	.	.	.	.	.	2g\)	.	2b-\)	.
1D]	no-	2D\	-re	.	.	2r	.	.	.	2r	.	2f#X/	-bis	2a\	-bis
!	!	!LO:TX:t=P:problem=kreska pseudotaktowa	!	!	!	!	!	!	!	!	!	!LO:TX:t=P:problem=kreska pseudotaktowa	!	!LO:TX:t=P:problem=kreska pseudotaktowa	!
.	.	2r	.	.	.	2d\	mi-	.	.	2b-\	mi-	2r	.	2r	.
=94-	=94-	=94-	=94-	=94-	=94-	=94-	=94-	=94-	=94-	=94-	=94-	=94-	=94-	=94-	=94-
!	!	!LO:TX:t=P:problem=kreska pseudotaktowa	!	!	!	!	!	!	!	!	!	!	!	!	!
!	!	!LO:TX:b:t=i	!	!	!	!	!	!	!	!	!	!	!	!	!
1E-X	-bis	1r	.	2c\	mi-	2c\	.	1a	no-	2a\	.	2g\	mi-	[>1cc	no-
.	.	.	.	2c\	-se-	2B-\	-se-	.	.	2g\	-se-	2g\	-se-	.	.
2D\	.	(>2D\	no-	2c\	-re-	2A\	-re-	2a\	.	2f#X\	re-	2a\	-re-	2cc\]	.
2G\	no-	2G\)	.	(>4B-\	-re	2B-\	-re	2g\	.	2g\	-re	2b-\	-re	2b-\	.
.	.	.	.	4c\)	.	.	.	.	.	.	.	.	.	.	.
=95-	=95-	=95-	=95-	=95-	=95-	=95-	=95-	=95-	=95-	=95-	=95-	=95-	=95-	=95-	=95-
1D	.	1D	.	1d	no-	1c	no-	1d	.	(>2g\	no-	1a	no-	1a	.
.	.	.	.	.	.	.	.	.	.	2f#X\)	.	.	.	.	.
!LO:TX:a:t=P:problem=napis "Laus Deo." na pięciolinii za kreską	!	!	!	!	!	!	!	!	!	!	!	!	!	!	!
!LO:TX:i:a:t=Laus Deo.	!	!	!	!	!	!	!	!	!	!	!	!	!	!	!
0GG;>	-bis	0GG;>	-bis	0d;<	-bis	0B-;<	-bis	0d;<	-bis	0g;<	-bis	0b-;<	-bis	0g	-bis
==	==	==	==	==	==	==	==	==	==	==	==	==	==	==	==
*-	*-	*-	*-	*-	*-	*-	*-	*-	*-	*-	*-	*-	*-	*-	*-
!!!system-decoration: [(s1,s2,s3,s4,s5,s6,s7,s8)]
!!!RDF**kern: > = above
!!!RDF**kern: < = below
!!!EED: Mateusz Mrugas
!!!EEV: 2021-03-08
!!!ENC: Berenika Jozajtis
!!!END: 2021-02-10
